!!!!SEGMENT: s-uu--vok-mus-i-hs-22-10_forster-kaspar--onda-che-presto-fuge.krn
!!!cenid: 16xx:1676
!!!COM: Förster, Kaspar
!!!COM-rismID: pe30006147
!!!CDT: ~1616-1673/02/02
!!!CNT: German
!!!OTL: Onda che presto fuge
!!!PDT: 1670
!!!AGN:
!!!YEC: Copyright 2022 Narodowy Instytut Fryderyka Chopina (https://polishscores.org)
!!!YEM: License CC-BY-4.0 (https://creativecommons.org/licenses/by/4.0)
!!!SMS-siglum: S-Uu
!!!SMS-shelfmark: Vok. mus. i hs. 22:10
!!!SMS-shelfwork: W
!!!SMS-variant:
!!!SMS-altvar:
!!!NIFC-rismSourceID: 190008729
!!!NIFC-rismChildID: 190008729
!!!NIFC-islandoraID: none
!!!URL-pdf-islandora:
!!!URL-scan: https://www2.musik.uu.se/duben/presentationSource1.php?Select_Dnr=845 @EN{Scan on Academica} @PL{Skany w zewnętrznej bibliotece cyfrowej}
!!!IIIF:
!!!ONB-nifc: UWAGA: poszczególne partie dostępne po kliknięciu w „browse part”. Informacje nt stron tytułowych w opisie na stronie lub na RISM.
!!!AIN: 1 alto 1 bass 1 soprn
!!!key: F
**kern	**fba	**dynam	**kern	**text	**dynam	**kern	**text	**dynam	**kern	**text	**dynam
*part4	*part4	*part4	*part3	*part3	*part3	*part2	*part2	*part2	*part1	*part1	*part1
*staff4	*staff4	*	*staff3	*staff3	*	*staff2	*staff2	*	*staff1	*staff1	*
*I"Continuo	*	*	*I"Basso	*	*	*I"Alto.	*	*	*I"Soprano.	*	*
*mI"Basso continuo	*	*	*	*	*	*mI"Alto	*	*	*mI"Soprano	*	*
*I'bc	*	*	*I'B	*	*	*I'A	*	*	*I'S	*	*
*	*	*	*Ibass	*	*	*Ialto	*	*	*Isoprn	*	*
*ICklav	*	*	*ICvox	*	*	*ICvox	*	*	*ICvox	*	*
*IGcont	*	*	*	*	*	*	*	*	*	*	*
*clefF4	*	*	*clefF4	*	*	*clefC3	*	*	*clefC1	*	*
*	*	*	*	*	*	*mclefG2	*	*	*mclefG2	*	*
*k[b-]	*	*	*k[b-]	*	*	*k[b-]	*	*	*k[b-]	*	*
*F:	*	*	*F:	*	*	*F:	*	*	*F:	*	*
*M3/2	*	*	*M3/2	*	*	*M3/2	*	*	*M3/2	*	*
=1-	=1-	=1-	=1-	=1-	=1-	=1-	=1-	=1-	=1-	=1-	=1-
!LO:MO:null:mod=*null	!	!	!LO:MO:null:mod=*null	!	!	!LO:MO:null:mod=*null	!	!	!LO:MO:null:mod=*null	!	!
*all\right	*	*	*all\right	*	*	*all\right	*	*	*all\right	*	*
1.FF	.	.	00.r	.	.	2r	.	.	1.r	.	.
.	.	.	.	.	.	1f	On-	.	.	.	.
=2-	=2-	=2-	=2-	=2-	=2-	=2-	=2-	=2-	=2-	=2-	=2-
1.AA	6	.	.	.	.	1c	-da	.	2r	.	.
!	!	!	!	!	!	!	!	!	!LO:TX:t=P:problem=kreska pseudotaktowa	!	!
.	.	.	.	.	.	.	.	.	1cc	On-	.
.	.	.	.	.	.	2c/	che	.	.	.	.
=3-	=3-	=3-	=3-	=3-	=3-	=3-	=3-	=3-	=3-	=3-	=3-
2.BB-/	.	.	.	.	.	(4d\	pre-	.	1f	-da	.
.	.	.	.	.	.	4c\	.	.	.	.	.
.	.	.	.	.	.	4d\	.	.	.	.	.
4C/	.	.	.	.	.	4e\)	.	.	.	.	.
!LO:TX:t=P:problem=kreska pseudotaktowa	!	!	!	!	!	!	!	!	!	!	!
2D/	.	.	.	.	.	(4f\	-sto	.	2f/	che	.
!	!	!	!	!	!	!LO:TX:t=P:problem=kreska pseudotaktowa	!	!	!	!	!
.	.	.	.	.	.	4d\)	.	.	.	.	.
=4-	=4-	=4-	=4-	=4-	=4-	=4-	=4-	=4-	=4-	=4-	=4-
1.C	.	.	.	.	.	4e\	fug-	.	(<4g/	pre-	.
.	.	.	.	.	.	4d\	.	.	4f/	.	.
.	.	.	.	.	.	4e\	.	.	4g/	.	.
.	.	.	.	.	.	4f\	.	.	4a\)	.	.
.	.	.	.	.	.	4g\	.	.	(4b-\	-sto	.
!	!	!	!	!	!	!	!	!	!LO:TX:t=P:problem=kreska pseudotaktowa	!	!
.	.	.	.	.	.	4e\	.	.	4g\)	.	.
=5-	=5-	=5-	=5-	=5-	=5-	=5-	=5-	=5-	=5-	=5-	=5-
!	!	!	!	!	!	!	!	!	!	!LO:SIC:v:s=fug-	!
1.F	.	.	2r	.	.	4f\	.	.	4a\	fu-	.
.	.	.	.	.	.	4e\	.	.	4g\	.	.
.	.	.	1F	On-	.	4f\	.	.	4a\	.	.
!	!	!	!	!	!	!	!	!	!LO:N:acc=#	!	!
.	.	.	.	.	.	4g\	.	.	4bn\	.	.
.	.	.	.	.	.	4a\	.	.	4cc\	.	.
!	!	!	!	!	!	!LO:TX:t=P:problem=kreska pseudotaktowa	!	!	!	!	!
!	!	!	!	!	!	!LO:N:acc=#	!	!	!	!	!
.	.	.	.	.	.	4bn\	.	.	4dd\	.	.
=6-	=6-	=6-	=6-	=6-	=6-	=6-	=6-	=6-	=6-	=6-	=6-
1.C	.	.	1C	-da	.	4cc\	.	.	1ee	.	.
.	.	.	.	.	.	4g\	.	.	.	.	.
.	.	.	.	.	.	4cc\	.	.	.	.	.
!	!	!	!	!	!	!LO:SIC:s=4b-X	!	!	!	!	!
.	.	.	.	.	.	4b-y\	.	.	.	.	.
*	*	*	*	*	*	*	*	*	*2\right	*	*
!	!	!	!	!	!	!	!	!	!LO:TX:t=P:problem=kreska pseudotaktowa	!	!
.	.	.	2C/	che	.	4a\	.	.	2ee\	-ge	.
.	.	.	.	.	.	4g\	.	.	.	.	.
=7-	=7-	=7-	=7-	=7-	=7-	=7-	=7-	=7-	=7-	=7-	=7-
!	!	!	!LO:SIC:s=(4D	!	!	!	!	!	!	!	!
1.D	.	.	4D/	pre-	.	1f	.	.	2r	.	.
.	.	.	4C/	.	.	.	.	.	.	.	.
.	.	.	4D/	.	.	.	.	.	1ff	Au-	.
!	!	!	!LO:SIC:s=4E)	!	!	!	!	!	!	!	!
.	.	.	4E/	.	.	.	.	.	.	.	.
*	*	*	*	*	*	*2\right	*	*	*	*	*
.	.	.	(4F\	-sto	.	2f\	-ge	.	.	.	.
!	!	!	!LO:TX:t=P:problem=kreska pseudotaktowa	!	!	!	!	!	!	!	!
.	.	.	4D\)	.	.	.	.	.	.	.	.
=8-	=8-	=8-	=8-	=8-	=8-	=8-	=8-	=8-	=8-	=8-	=8-
!LO:TX:t=P:problem=kreska pseudotaktowa	!	!	!	!	!	!	!	!	!	!	!
1.E	6	.	4E\	fug-	.	0.r	.	.	1cc	-ra	.
.	.	.	4C/	.	.	.	.	.	.	.	.
.	.	.	4c\	.	.	.	.	.	.	.	.
.	.	.	4B-\	.	.	.	.	.	.	.	.
!	!	!	!	!	!	!	!	!	!LO:TX:t=P:problem=kreska pseudotaktowa	!	!
.	.	.	4A\	.	.	.	.	.	2cc\	che	.
.	.	.	4G\	.	.	.	.	.	.	.	.
=9-	=9-	=9-	=9-	=9-	=9-	=9-	=9-	=9-	=9-	=9-	=9-
*2\right	*	*	*	*	*	*	*	*	*	*	*
!	!	!	!	!	!	!	!	!	!LO:SIC:s=4dd	!	!
2.F\	6	.	4F\	.	.	.	.	.	(<4dd\	si	.
.	.	.	4E\	.	.	.	.	.	4cc\	.	.
.	.	.	4F\	.	.	.	.	.	4dd\	.	.
4G\	6	.	4G\	.	.	.	.	.	4ee\	.	.
!	!	!	!	!	!	!	!	!	!LO:SIC:s=4ff	!	!
4A\	6	.	4A\	.	.	.	.	.	4ff\)	.	.
!LO:N:acc=#	!LO:MO:null:mod=6	!	!LO:N:acc=#	!	!	!	!	!	!	!	!
4Bn\	.	.	4Bn\	.	.	.	.	.	4dd\	.	.
*	*	*	*	*	*	*custos:cc	*	*	*	*	*
!	!	!	!	!	!	!LO:LB:g=original	!	!	!LO:LB:g=original	!	!
=10-	=10-	=10-	=10-	=10-	=10-	=10-	=10-	=10-	=10-	=10-	=10-
*	*	*	*2\right	*	*	*	*	*	*	*	*
2c\	.	.	2c\	.	.	2r	.	.	4ee\	.	.
.	.	.	.	.	.	.	.	.	4dd\	.	.
1C	.	.	2C/	-ge	.	1cc	Au-	.	4ee\	.	.
.	.	.	.	.	.	.	.	.	4cc/	.	.
.	.	.	2C/	che	.	.	.	.	(4dd\	dis-	.
!	!	!	!	!	!	!	!	!	!LO:TX:t=P:problem=kreska pseudotaktowa	!	!
.	.	.	.	.	.	.	.	.	4ee\)	.	.
=11-	=11-	=11-	=11-	=11-	=11-	=11-	=11-	=11-	=11-	=11-	=11-
!	!	!	!LO:SIC:s=(4D	!	!	!	!	!	!	!	!
1.D	.	.	4D/	pre-	.	1f	-ra	.	2ff\	-per-	.
.	.	.	4C/	.	.	.	.	.	.	.	.
.	.	.	4D/	.	.	.	.	.	2ff\	-de	.
!	!	!	!LO:SIC:s=4E)	!	!	!	!	!	!	!	!
.	.	.	4E\	.	.	.	.	.	.	.	.
.	.	.	(<4F\	-sto	.	2f\	che	.	2r	.	.
.	.	.	4D/)	.	.	.	.	.	.	.	.
=12-	=12-	=12-	=12-	=12-	=12-	=12-	=12-	=12-	=12-	=12-	=12-
!	!	!	!	!	!	!LO:SIC:s=(4g	!	!	!	!	!
1.E	6	.	1.E	fug-	.	4g\	si	.	2r	.	.
.	.	.	.	.	.	4f\	.	.	.	.	.
!	!	!	!	!	!	!	!	!	!	!LO:SIC:s=au-	!
.	.	.	.	.	.	4g\	.	.	1cc	Au-	.
!	!	!	!	!	!	!LO:SIC:s=4e)	!	!	!	!	!
.	.	.	.	.	.	4e\	.	.	.	.	.
.	.	.	.	.	.	(4f\	dis-	.	.	.	.
.	.	.	.	.	.	4g\)	.	.	.	.	.
!	!	!	!LO:LB:g=original	!	!	!	!	!	!	!	!
=13-	=13-	=13-	=13-	=13-	=13-	=13-	=13-	=13-	=13-	=13-	=13-
1.F	.	.	1F	-ge	.	4a\	-per-	.	1f	-ra	.
.	.	.	.	.	.	4g\	.	.	.	.	.
.	.	.	.	.	.	4a\	.	.	.	.	.
.	.	.	.	.	.	4f\	.	.	.	.	.
.	.	.	2r	.	.	4g\	.	.	2cc\	che	.
.	.	.	.	.	.	4a\	.	.	.	.	.
=14-	=14-	=14-	=14-	=14-	=14-	=14-	=14-	=14-	=14-	=14-	=14-
1.C	.	.	2r	.	.	4g\	.	.	1ee	si	.
.	.	.	.	.	.	4f\	.	.	.	.	.
.	.	.	1c	Au-	.	4e\	.	.	.	.	.
.	.	.	.	.	.	4d\	.	.	.	.	.
.	.	.	.	.	.	4c/	.	.	2ee\	dis-	.
.	.	.	.	.	.	4B-/	.	.	.	.	.
=15-	=15-	=15-	=15-	=15-	=15-	=15-	=15-	=15-	=15-	=15-	=15-
1.F	.	.	1F	-ra	.	2A/	.	.	2ff\	-per-	.
.	.	.	.	.	.	2A/	-de	.	2ff\	-de	.
!	!	!	!	!	!	!	!	!	!LO:TX:t=P:problem=kreska pseudotaktowa	!	!
.	.	.	2F\	che	.	2f\	che	.	2a\	che	.
*custos:G	*	*	*	*	*	*	*	*	*	*	*
!LO:LB:g=original	!	!	!	!	!	!	!	!	!	!	!
=16-	=16-	=16-	=16-	=16-	=16-	=16-	=16-	=16-	=16-	=16-	=16-
!	!	!	!LO:SIC:s=(4G	!	!	!	!	!	!LO:SIC:s=(4b-	!	!
2.G\	6	.	4G\	si	.	1e-X	si	.	4b-y\	si	.
.	.	.	4F\	.	.	.	.	.	4a\	.	.
.	.	.	4G\	.	.	.	.	.	4b-\	.	.
!	!	!	!	!	!	!	!	!	!LO:SIC:s=4cc)	!	!
4A\	.	.	4A\	.	.	.	.	.	4cc\	.	.
!LO:TX:t=P:problem=kreska pseudotaktowa	!	!	!LO:SIC:s=2B-)	!	!	!	!	!	!	!	!
2B-y\	.	.	2B-y\	.	.	2d\	dis-	.	2dd\	dis-	.
=17-	=17-	=17-	=17-	=17-	=17-	=17-	=17-	=17-	=17-	=17-	=17-
!	!LO:MO:null:mod=4 2	!	!	!	!	!	!	!	!	!	!
1B-	.	.	2B-\	dis-	.	(1e-X	-per-	.	1.cc	-per-	.
!	!LO:MO:mod=.	!	!	!	!	!	!	!	!	!	!
.	4 2	.	2.B-\	-per-	.	.	.	.	.	.	.
2A\	.	.	.	.	.	2f\)	.	.	.	.	.
!	!	!	!	!LO:SIC:s=-de	!	!	!	!	!	!	!
.	.	.	(4A\	-de,	.	.	.	.	.	.	.
*	*	*	*	*	*	*	*	*	*custos:dd	*	*
!	!	!	!	!	!	!	!	!	!LO:LB:g=original	!	!
=18-	=18-	=18-	=18-	=18-	=18-	=18-	=18-	=18-	=18-	=18-	=18-
1B-	.	.	2B-\)	.	.	2f\	-de	.	2dd\	-de	.
.	.	.	2r	.	.	2r	.	.	2r	.	.
!	!	!	!	!	!	!	!	!	!LO:TX:t=P:problem=kreska pseudotaktowa	!	!
2A\	.	.	2A\	che	.	2f\	che	.	2cc\	che	.
!	!	!	!	!	!	!LO:LB:g=original	!	!	!	!	!
=19-	=19-	=19-	=19-	=19-	=19-	=19-	=19-	=19-	=19-	=19-	=19-
1G	.	.	1G	si	.	2g\	si	.	(4b-\	si	.
.	.	.	.	.	.	.	.	.	4a\	.	.
.	.	.	.	.	.	(4d\	dis-	.	4b-\	.	.
.	.	.	.	.	.	4eny\	.	.	4cc\)	.	.
2F\	.	.	2F\	dis-	.	2f\)	.	.	(4a\	dis-	.
!	!	!	!	!	!	!	!	!	!LO:TX:t=P:problem=kreska pseudotaktowa	!	!
.	.	.	.	.	.	.	.	.	4b-\)	.	.
=20-	=20-	=20-	=20-	=20-	=20-	=20-	=20-	=20-	=20-	=20-	=20-
1.C	.	.	2C/	-per-	.	2e\	-per-	.	2g/	-per-	.
.	.	.	2C/	-de	.	2e\	-de	.	2g/	-de	.
!	!	!	!	!	!	!LO:TX:t=P:problem=kreska pseudotaktowa	!	!	!	!	!
.	.	.	2r	.	.	2r	.	.	2r	.	.
=21-	=21-	=21-	=21-	=21-	=21-	=21-	=21-	=21-	=21-	=21-	=21-
!!LO:TX:a:B:t= :mod=Adagio
!	!	!	!	!	!	!LO:TX:a:B:mod= :t=adagio	!	!	!	!	!
1.C	.	.	1.r	.	.	2r	.	.	2r	.	.
!	!	!	!	!	!	!	!	!	!LO:TX:b:B:mod= :t=adagio	!	!
.	.	.	.	.	.	2e\	fred-	.	2g/	fred-	.
.	.	.	.	.	.	2e\	-do	.	2g/	-do	.
=22-	=22-	=22-	=22-	=22-	=22-	=22-	=22-	=22-	=22-	=22-	=22-
1.C	.	.	2r	.	.	[1.e	gel	.	[1.g	gel	.
!	!	!	!LO:TX:a:B:mod= :t=adagio	!	!	!	!	!	!	!	!
.	.	.	2C/	fred-	.	.	.	.	.	.	.
.	.	.	2C/	-do	.	.	.	.	.	.	.
=23-	=23-	=23-	=23-	=23-	=23-	=23-	=23-	=23-	=23-	=23-	=23-
!	!	!	!	!	!	!	!	!	!LO:TX:t=P:problem=kreska pseudotaktowa	!	!
1.C	.	.	1.C	gel	.	1.e]	.	.	1.g]	.	.
=24-	=24-	=24-	=24-	=24-	=24-	=24-	=24-	=24-	=24-	=24-	=24-
2r	.	.	2r	.	.	2r	.	.	2r	.	.
2G\	.	.	2G\	che	.	2g\	che	.	2b-\	che	.
!	!	!	!	!	!	!	!	!	!LO:TX:t=P:problem=kreska pseudotaktowa	!	!
2E-X\	6	.	2E-X\	si	.	2g\	si	.	2cc\	si	.
*	*	*	*custos:D	*	*	*	*	*	*	*	*
!	!	!	!LO:LB:g=original	!	!	!	!	!	!	!	!
=25-	=25-	=25-	=25-	=25-	=25-	=25-	=25-	=25-	=25-	=25-	=25-
1.D	#	.	1D	strug-	.	1f#X	strug-	.	2dd\	strug-	.
.	.	.	.	.	.	.	.	.	2dd\	-ge	.
.	.	.	2D/	-ge	.	2f#\	-ge	.	2a\	te-	.
=26-	=26-	=26-	=26-	=26-	=26-	=26-	=26-	=26-	=26-	=26-	=26-
!LO:SIC:v:s=1G	!LO:MO:mod=.	!	!	!	!	!	!	!	!	!	!
1D	#	.	2r	.	.	2r	.	.	2b-\	-so-	.
.	.	.	2r	.	.	2r	.	.	2b-\	-ro	.
!	!LO:MO:null:mod=#	!	!	!	!	!	!LO:SIC:s=te-	!	!	!	!
2D/	.	.	2D/	te-	.	2f#X\	Te-	.	2r	.	.
*	*	*	*	*	*	*	*	*	*custos:dd	*	*
!	!	!	!	!	!	!	!	!	!LO:LB:g=original	!	!
=27-	=27-	=27-	=27-	=27-	=27-	=27-	=27-	=27-	=27-	=27-	=27-
1E-X	.	.	2E-X\	-so-	.	2g\	-so-	.	2r	.	.
.	.	.	2E-\	-ro	.	2g\	-ro	.	2r	.	.
2BB-/	6	.	2BB-/	te-	.	2d\	te-	.	2dd\	te-	.
=28-	=28-	=28-	=28-	=28-	=28-	=28-	=28-	=28-	=28-	=28-	=28-
2.C/	.	.	2.C/	-so-	.	2.e-X\	-so-	.	2.cc\	-so-	.
4D/	.	.	4D/	-ro	.	4fny\	-ro	.	4cc\	-ro	.
!	!	!	!	!	!	!	!	!	!LO:TX:t=P:problem=kreska pseudotaktowa	!	!
2E-X\	.	.	2E-X\	che	.	2g\	che	.	2cc\	che	.
*custos:F	*	*	*	*	*	*	*	*	*	*	*
!LO:LB:g=original	!	!	!	!	!	!LO:LB:g=original	!	!	!	!	!
=29-	=29-	=29-	=29-	=29-	=29-	=29-	=29-	=29-	=29-	=29-	=29-
2F\	.	.	2F\	si	.	(4f\	si	.	2cc\	si	.
.	.	.	.	.	.	4e-X\)	.	.	.	.	.
1G	.	.	1G	per-	.	1d	per-	.	2.cc\	per-	.
!	!	!	!	!	!	!	!	!	!LO:N:acc=#	!	!
.	.	.	.	.	.	.	.	.	(4bn\	-de	.
=30-	=30-	=30-	=30-	=30-	=30-	=30-	=30-	=30-	=30-	=30-	=30-
1.C	-	.	2C/	-de	.	2e-X\	-de	.	2cc\)	.	.
!	!	!	!	!	!	!	!LO:SIC:s=On-	!	!	!	!
.	.	.	2r	.	.	1cc	on-	.	2r	.	.
.	.	.	2r	.	.	.	.	.	2r	.	.
=31-	=31-	=31-	=31-	=31-	=31-	=31-	=31-	=31-	=31-	=31-	=31-
1.D	.	.	00.r	.	.	1f	-da	.	0.r	.	.
.	.	.	.	.	.	2f\	che	.	.	.	.
=32-	=32-	=32-	=32-	=32-	=32-	=32-	=32-	=32-	=32-	=32-	=32-
!	!	!	!	!	!	!LO:SIC:s=(4g	!	!	!	!	!
1.Eny	6	.	.	.	.	4g\	pre-	.	.	.	.
.	.	.	.	.	.	4f\	.	.	.	.	.
.	.	.	.	.	.	4g\	.	.	.	.	.
!	!	!	!	!	!	!LO:SIC:s=4a)	!	!	!	!	!
.	.	.	.	.	.	4a\	.	.	.	.	.
.	.	.	.	.	.	(4b-\	-sto	.	.	.	.
.	.	.	.	.	.	4g\)	.	.	.	.	.
=33-	=33-	=33-	=33-	=33-	=33-	=33-	=33-	=33-	=33-	=33-	=33-
1.F	.	.	.	.	.	4a\	fug-	.	2r	.	.
.	.	.	.	.	.	4b-\	.	.	.	.	.
.	.	.	.	.	.	4a\	.	.	1ff	On-	.
.	.	.	.	.	.	4g\	.	.	.	.	.
.	.	.	.	.	.	4f\	.	.	.	.	.
!	!	!	!	!	!	!LO:SIC:v:s=4e-	!	!	!	!	!
.	.	.	.	.	.	4eny\	.	.	.	.	.
=34-	=34-	=34-	=34-	=34-	=34-	=34-	=34-	=34-	=34-	=34-	=34-
1.G	.	.	.	.	.	4d\	.	.	1b-y	-da	.
.	.	.	.	.	.	4c\	.	.	.	.	.
.	.	.	.	.	.	4d\	.	.	.	.	.
.	.	.	.	.	.	4g\	.	.	.	.	.
!	!	!	!	!	!	!	!	!	!LO:TX:t=P:problem=kreska pseudotaktowa	!	!
.	.	.	.	.	.	4f\	.	.	2b-\	che	.
.	.	.	.	.	.	4g\	.	.	.	.	.
=35-	=35-	=35-	=35-	=35-	=35-	=35-	=35-	=35-	=35-	=35-	=35-
1.A	6	.	0.r	.	.	2c/	.	.	(4cc\	pre-	.
.	.	.	.	.	.	.	.	.	4b-\	.	.
.	.	.	.	.	.	2c/	-ge	.	4cc\	.	.
.	.	.	.	.	.	.	.	.	4dd\)	.	.
.	.	.	.	.	.	2cc\	che	.	(4ee-\	-sto	.
!	!	!	!	!	!	!	!	!	!LO:TX:t=P:problem=kreska pseudotaktowa	!	!
.	.	.	.	.	.	.	.	.	4cc\)	.	.
=36-	=36-	=36-	=36-	=36-	=36-	=36-	=36-	=36-	=36-	=36-	=36-
!	!	!	!	!	!	!LO:SIC:s=(4b-	!	!	!	!	!
1.B-	.	.	.	.	.	4b-\	pre-	.	4dd\	fug-	.
.	.	.	.	.	.	4cc\	.	.	4ee-\	.	.
.	.	.	.	.	.	4b-\	.	.	4dd\	.	.
!	!	!	!	!	!	!LO:SIC:s=4a)	!	!	!	!	!
.	.	.	.	.	.	4a\	.	.	4cc\	.	.
.	.	.	.	.	.	(4g\	-sto	.	4b-\	.	.
.	.	.	.	.	.	4f\)	.	.	4a\	.	.
!	!	!	!	!	!	!LO:LB:g=original	!	!	!LO:LB:g=original	!	!
=37-	=37-	=37-	=37-	=37-	=37-	=37-	=37-	=37-	=37-	=37-	=37-
2c\	.	.	2r	.	.	4e\	fug-	.	4g/	.	.
.	.	.	.	.	.	4d\	.	.	4f/	.	.
1C	.	.	1C	On-	.	4e\	.	.	4g/	.	.
.	.	.	.	.	.	4f\	.	.	4a\	.	.
.	.	.	.	.	.	4g\	.	.	4b-\	.	.
!	!	!	!	!	!	!	!	!	!LO:TX:t=P:problem=kreska pseudotaktowa	!	!
.	.	.	.	.	.	4e\	.	.	4cc\	.	.
=38-	=38-	=38-	=38-	=38-	=38-	=38-	=38-	=38-	=38-	=38-	=38-
1.FF	.	.	1FF	-da	.	2f\	-ge	.	2a\	-ge	.
!	!	!	!	!	!	!	!LO:SIC:s=on-	!	!	!	!
.	.	.	.	.	.	1f	On-	.	2r	.	.
.	.	.	2FF/	che	.	.	.	.	2r	.	.
=39-	=39-	=39-	=39-	=39-	=39-	=39-	=39-	=39-	=39-	=39-	=39-
!	!	!	!LO:SIC:s=(4AA	!	!	!	!	!	!	!	!
1.AA	6	.	4AA/	pre-	.	1c	-da	.	2r	.	.
.	.	.	4GG/	.	.	.	.	.	.	.	.
.	.	.	4AA/	.	.	.	.	.	1cc	on-	.
!	!	!	!LO:SIC:s=4BB-)	!	!	!	!	!	!	!	!
.	.	.	4BB-/	.	.	.	.	.	.	.	.
.	.	.	(4C/	-sto	.	2c/	che	.	.	.	.
.	.	.	4AA/)	.	.	.	.	.	.	.	.
*	*	*	*custos:BB	*	*	*	*	*	*	*	*
!	!	!	!LO:LB:g=original	!	!	!	!	!	!	!	!
=40-	=40-	=40-	=40-	=40-	=40-	=40-	=40-	=40-	=40-	=40-	=40-
!	!	!	!	!	!	!LO:SIC:s=(4d	!	!	!	!	!
2.BB-/	.	.	4BB-/	fug-	.	4d\	pre-	.	1f	-da	.
.	.	.	4AA/	.	.	4c\	.	.	.	.	.
.	.	.	4BB-/	.	.	4d\	.	.	.	.	.
!	!	!	!	!	!	!LO:SIC:s=4e)	!	!	!	!	!
4C/	.	.	4C/	.	.	4e\	.	.	.	.	.
2D/	.	.	2D/	.	.	(4f\	-sto	.	2f/	che	.
!	!	!	!	!	!	!LO:TX:t=P:problem=kreska pseudotaktowa	!	!	!	!	!
.	.	.	.	.	.	4d\)	.	.	.	.	.
=41-	=41-	=41-	=41-	=41-	=41-	=41-	=41-	=41-	=41-	=41-	=41-
!	!	!	!	!	!	!	!	!	!LO:SIC:s=(4g	!	!
1.C	.	.	1C	-ge	.	4e\	fug-	.	4g/	pre-	.
.	.	.	.	.	.	4d\	.	.	4f/	.	.
.	.	.	.	.	.	4e\	.	.	4g/	.	.
!	!	!	!	!	!	!	!	!	!LO:SIC:s=4a)	!	!
.	.	.	.	.	.	4f\	.	.	4a/	.	.
.	.	.	2r	.	.	4g\	.	.	(4b-\	-sto	.
!	!	!	!	!	!	!	!	!	!LO:TX:t=P:problem=kreska pseudotaktowa	!	!
.	.	.	.	.	.	4e\	.	.	4cc\)	.	.
=42-	=42-	=42-	=42-	=42-	=42-	=42-	=42-	=42-	=42-	=42-	=42-
1.F	.	.	2r	.	.	4f\	.	.	4a\	fug-	.
.	.	.	.	.	.	4e\	.	.	4g\	.	.
!	!	!	!	!LO:SIC:s=on-	!	!	!	!	!	!	!
.	.	.	1F	On-	.	4f\	.	.	4a\	.	.
!	!	!	!	!	!	!	!	!	!LO:SIC:v:s=4b	!	!
.	.	.	.	.	.	4g\	.	.	4b-\	.	.
.	.	.	.	.	.	4a\	.	.	4cc\	.	.
!	!	!	!	!	!	!LO:N:acc=#	!	!	!	!	!
.	.	.	.	.	.	4bn\	.	.	4dd\	.	.
=43-	=43-	=43-	=43-	=43-	=43-	=43-	=43-	=43-	=43-	=43-	=43-
1.C	.	.	1C	-da	.	4cc\	.	.	1eeny	.	.
.	.	.	.	.	.	4g\	.	.	.	.	.
.	.	.	.	.	.	4cc\	.	.	.	.	.
.	.	.	.	.	.	4b-y\	.	.	.	.	.
!	!	!	!	!	!	!	!	!	!LO:TX:t=P:problem=kreska pseudotaktowa	!	!
.	.	.	2C/	che	.	4a\	.	.	2ee\	-ge	.
.	.	.	.	.	.	4g\	.	.	.	.	.
=44-	=44-	=44-	=44-	=44-	=44-	=44-	=44-	=44-	=44-	=44-	=44-
1.D	.	.	(<4D/	pre-	.	1f	.	.	2r	.	.
.	.	.	4C/	.	.	.	.	.	.	.	.
.	.	.	4D/	.	.	.	.	.	1ff	on-	.
.	.	.	4Eny\)	.	.	.	.	.	.	.	.
.	.	.	(4F\	-sto	.	2f\	-ge	.	.	.	.
!	!	!	!LO:TX:t=P:problem=kreska pseudotaktowa	!	!	!	!	!	!	!	!
.	.	.	4D\)	.	.	.	.	.	.	.	.
!	!	!	!	!	!	!LO:LB:g=original	!	!	!	!	!
=45-	=45-	=45-	=45-	=45-	=45-	=45-	=45-	=45-	=45-	=45-	=45-
1.E	6	.	4E\	fug-	.	0.r	.	.	1cc	-da	.
.	.	.	4C/	.	.	.	.	.	.	.	.
.	.	.	4c\	.	.	.	.	.	.	.	.
.	.	.	4B-\	.	.	.	.	.	.	.	.
.	.	.	4A\	.	.	.	.	.	2cc\	che	.
.	.	.	4G\	.	.	.	.	.	.	.	.
*custos:F	*	*	*	*	*	*	*	*	*	*	*
!LO:LB:g=original	!	!	!	!	!	!	!	!	!	!	!
=46-	=46-	=46-	=46-	=46-	=46-	=46-	=46-	=46-	=46-	=46-	=46-
!	!	!	!	!	!	!	!	!	!LO:SIC:s=(4dd	!	!
2.F\	6	.	4F\	.	.	.	.	.	4dd\	pre-	.
.	.	.	4E\	.	.	.	.	.	4cc\	.	.
.	.	.	4F\	.	.	.	.	.	4dd\	.	.
!	!	!	!	!	!	!	!	!	!LO:SIC:s=4ee)	!	!
4G\	6	.	4G\	.	.	.	.	.	4ee\	.	.
4A\	6	.	4A\	.	.	.	.	.	(4ff\	.	.
!LO:N:acc=#	!	!	!LO:N:acc=#	!	!	!	!	!	!	!	!
4Bn\	6	.	4Bn\	.	.	.	.	.	4dd\)	.	.
!	!	!	!	!	!	!	!	!	!LO:LB:g=original	!	!
=47-	=47-	=47-	=47-	=47-	=47-	=47-	=47-	=47-	=47-	=47-	=47-
2c\	.	.	2c\	.	.	2r	.	.	4ee\	.	.
.	.	.	.	.	.	.	.	.	4dd\	.	.
1C	.	.	2C/	-ge	.	1cc	Au-	.	4ee\	.	.
.	.	.	.	.	.	.	.	.	4cc\	.	.
!	!	!	!LO:TX:t=P:problem=kreska pseudotaktowa	!	!	!	!	!	!	!	!
.	.	.	2C/	che	.	.	.	.	(4dd\	-sto	.
.	.	.	.	.	.	.	.	.	4ee\)	.	.
=48-	=48-	=48-	=48-	=48-	=48-	=48-	=48-	=48-	=48-	=48-	=48-
!	!	!	!LO:SIC:s=(4D	!	!	!	!	!	!	!	!
1.D	.	.	4D/	pre-	.	1f	-ra	.	2ff\	fug-	.
.	.	.	4C/	.	.	.	.	.	.	.	.
.	.	.	4D/	.	.	.	.	.	2ff\	-ge	.
!	!	!	!LO:SIC:s=4E)	!	!	!	!	!	!	!	!
.	.	.	4E\	.	.	.	.	.	.	.	.
!	!	!	!	!LO:MO:null:mod=-sto	!	!	!	!	!	!	!
.	.	.	(4F\	.	.	2f\	che	.	2r	.	.
!	!	!	!	!LO:MO:mod=.	!	!	!	!	!	!	!
.	.	.	4D\)	-sto	.	.	.	.	.	.	.
!	!	!	!LO:LB:g=original	!	!	!	!	!	!	!	!
=49-	=49-	=49-	=49-	=49-	=49-	=49-	=49-	=49-	=49-	=49-	=49-
!	!	!	!	!	!	!LO:SIC:s=(4g	!	!	!	!	!
1.E	6	.	1.E	fug-	.	4g\	si	.	2r	.	.
.	.	.	.	.	.	4f\	.	.	.	.	.
.	.	.	.	.	.	4g\	.	.	1cc	Au-	.
!	!	!	!	!	!	!LO:SIC:s=4e)	!	!	!	!	!
.	.	.	.	.	.	4e\	.	.	.	.	.
!	!	!	!	!	!	!	!LO:SIC:v:s=dis-	!	!	!	!
.	.	.	.	.	.	(4f\	di-	.	.	.	.
!	!	!	!	!	!	!LO:TX:t=P:problem=kreska pseudotaktowa	!	!	!	!	!
.	.	.	.	.	.	4g\)	.	.	.	.	.
=50-	=50-	=50-	=50-	=50-	=50-	=50-	=50-	=50-	=50-	=50-	=50-
1.F	.	.	1F	-ge	.	4a\	-per-	.	1f	-ra	.
.	.	.	.	.	.	4g\	.	.	.	.	.
.	.	.	.	.	.	4a\	.	.	.	.	.
.	.	.	.	.	.	4f\	.	.	.	.	.
.	.	.	2r	.	.	4g\	.	.	2cc\	che	.
.	.	.	.	.	.	4a\	.	.	.	.	.
=51-	=51-	=51-	=51-	=51-	=51-	=51-	=51-	=51-	=51-	=51-	=51-
1.C	.	.	2r	.	.	4g\	.	.	1ee	si	.
.	.	.	.	.	.	4f\	.	.	.	.	.
.	.	.	1c	Au-	.	4e\	.	.	.	.	.
.	.	.	.	.	.	4d\	.	.	.	.	.
.	.	.	.	.	.	4c/	.	.	2ee\	dis-	.
.	.	.	.	.	.	4B-/	.	.	.	.	.
=52-	=52-	=52-	=52-	=52-	=52-	=52-	=52-	=52-	=52-	=52-	=52-
1.F	.	.	1F	-ra	.	2A/	.	.	2ff\	-per-	.
.	.	.	.	.	.	2A/	-de	.	2ff\	-de	.
!	!	!	!	!	!	!	!	!	!LO:TX:t=P:problem=kreska pseudotaktowa	!	!
.	.	.	2F\	che	.	2f\	che	.	2a\	che	.
=53-	=53-	=53-	=53-	=53-	=53-	=53-	=53-	=53-	=53-	=53-	=53-
!	!	!	!LO:SIC:s=(4G	!	!	!	!	!	!LO:SIC:s=(4b-	!	!
2.G\	6	.	4G\	si	.	1e-X	si	.	4b-\	si	.
.	.	.	4F\	.	.	.	.	.	4a\	.	.
.	.	.	4G\	.	.	.	.	.	4b-\	.	.
!	!	!	!	!	!	!	!	!	!LO:SIC:s=4cc)	!	!
4A\	.	.	4A\	.	.	.	.	.	4cc\	.	.
!	!	!	!LO:SIC:s=2B-)	!	!	!	!	!	!	!	!
2B-y\	.	.	2B-y\	.	.	2d\	dis-	.	2dd\	dis-	.
=54-	=54-	=54-	=54-	=54-	=54-	=54-	=54-	=54-	=54-	=54-	=54-
!	!LO:MO:null:mod=4 2	!	!	!	!	!	!	!	!	!	!
1B-	.	.	2B-\	dis-	.	1.e-	-per-	.	1.cc	-per-	.
!	!LO:MO:mod=.	!	!	!	!	!	!	!	!	!	!
.	4 2	.	2.B-\	-per-	.	.	.	.	.	.	.
2A\	6	.	.	.	.	.	.	.	.	.	.
.	.	.	(4A\	-de	.	.	.	.	.	.	.
=55-	=55-	=55-	=55-	=55-	=55-	=55-	=55-	=55-	=55-	=55-	=55-
2.B-\	.	.	2B-\)	.	.	2d\	-de	.	2dd\	-de	.
.	.	.	(4B-\	fred-	.	2r	.	.	(4dd\	fred-	.
4c\	.	.	4c\)	.	.	.	.	.	4ee-X\)	.	.
4A\	.	.	(4A\	-do	.	2r	.	.	(4cc\	-do	.
4B-\	.	.	4B-\)	.	.	.	.	.	4dd\)	.	.
*	*	*	*	*	*	*custos:g	*	*	*custos:b	*	*
!	!	!	!	!	!	!LO:LB:g=original	!	!	!LO:LB:g=original	!	!
=56-	=56-	=56-	=56-	=56-	=56-	=56-	=56-	=56-	=56-	=56-	=56-
1.G	.	.	1.G	gel	.	2r	.	.	1b-	gel	.
.	.	.	.	.	.	(4g\	fred-	.	.	.	.
.	.	.	.	.	.	4a\)	.	.	.	.	.
.	.	.	.	.	.	(4f\	-do	.	2r	.	.
!	!	!	!	!	!	!LO:TX:t=P:problem=kreska pseudotaktowa	!	!	!	!	!
.	.	.	.	.	.	4g\)	.	.	.	.	.
=57-	=57-	=57-	=57-	=57-	=57-	=57-	=57-	=57-	=57-	=57-	=57-
!	!	!	!	!	!	!LO:SIC:s=(4e	!	!	!	!	!
1.C	.	.	2r	.	.	4eny\	gel	.	2r	.	.
.	.	.	.	.	.	4d\	.	.	.	.	.
.	.	.	2.c\	che	.	4e\	.	.	(4cc\	fred-	.
!	!	!	!	!	!	!LO:SIC:s=4f)	!	!	!	!	!
.	.	.	.	.	.	4f\	.	.	4dd\)	.	.
.	.	.	.	.	.	(4g\	che	.	(4b-\	-do	.
!	!	!	!LO:TX:t=P:problem=kreska pseudotaktowa	!	!	!LO:TX:t=P:problem=kreska pseudotaktowa	!	!	!	!	!
.	.	.	4c\	si	.	4e\)	.	.	4cc\)	.	.
=58-	=58-	=58-	=58-	=58-	=58-	=58-	=58-	=58-	=58-	=58-	=58-
!	!	!	!	!	!	!LO:SIC:s=(<4f	!	!	!	!	!
1.F	.	.	2F\	strug-	.	4f\	si	.	2a\	gel	.
.	.	.	.	.	.	4g\	.	.	.	.	.
.	.	.	2.F\	-ge	.	4a\	.	.	2.ff\	che	.
!	!	!	!	!	!	!LO:SIC:s=4b-)	!	!	!	!	!
.	.	.	.	.	.	4b-\	.	.	.	.	.
.	.	.	.	.	.	(4cc\	di	.	.	.	.
!	!	!	!	!	!	!	!	!	!LO:TX:t=P:problem=kreska pseudotaktowa	!	!
.	.	.	4F\	si	.	4a\)	.	.	4ff\	si	.
*	*	*	*custos:BB	*	*	*	*	*	*	*	*
!	!	!	!LO:LB:g=original	!	!	!	!	!	!	!	!
=59-	=59-	=59-	=59-	=59-	=59-	=59-	=59-	=59-	=59-	=59-	=59-
1.BB-	.	.	2BB-/	strug-	.	2b-\	strug-	.	2dd\	strug-	.
!	!	!	!	!	!	!	!	!	!	!LO:SIC:s=-ge	!
.	.	.	2BB-/	-ge	.	2b-\	-ge	.	2dd\	-ge,	.
!	!	!	!	!	!	!LO:TX:t=P:problem=kreska pseudotaktowa	!	!	!	!	!
.	.	.	2BB-/	te-	.	2d\	te-	.	2dd\	te-	.
*custos:C	*	*	*	*	*	*	*	*	*	*	*
!LO:LB:g=original	!	!	!	!	!	!	!	!	!	!	!
=60-	=60-	=60-	=60-	=60-	=60-	=60-	=60-	=60-	=60-	=60-	=60-
2.C/	.	.	2.C/	-so-	.	2.e\	-so-	.	2.cc\	-so-	.
4D/	.	.	4D/	-ro	.	4f\	-ro	.	4cc\	-ro	.
2E-X\	.	.	2E-X\	che	.	2g\	che	.	2b-\	che	.
=61-	=61-	=61-	=61-	=61-	=61-	=61-	=61-	=61-	=61-	=61-	=61-
2C/	6 5	.	2C/	si	.	2g\	si	.	2a\	si	.
!LO:TX:t=P:problem=kreska pseudotaktowa	!	!	!	!	!	!	!	!	!	!	!
1D	4	.	1D	per-	.	2.g\	per-	.	1a	per-	.
.	3	.	.	.	.	(4f#X\	-de	.	.	.	.
=62-	=62-	=62-	=62-	=62-	=62-	=62-	=62-	=62-	=62-	=62-	=62-
!	!	!	!	!	!	!	!	!	!LO:N:acc=#	!	!
2GG/	#	.	2GG/	-de	.	2g\)	.	.	2bn\	-de	.
!	!	!	!	!	!	!LO:N:acc=#	!	!	!	!	!
1G	.	.	2.G\	fra-	.	2.Bn/	fra-	.	2r	.	.
.	.	.	.	.	.	.	.	.	2r	.	.
.	.	.	4G\	-gi-	.	4B/	-gi-	.	.	.	.
!	!	!	!	!	!	!LO:LB:g=original	!	!	!	!	!
=63-	=63-	=63-	=63-	=63-	=63-	=63-	=63-	=63-	=63-	=63-	=63-
2A\	.	.	2A\	-lis-	.	2c/	-liſ-	.	00.r	.	.
!LO:TX:a:t=P:problem=# above	!	!	!	!	!	!	!	!	!	!	!
!LO:N:acc=#	!	!	!LO:N:acc=#	!	!	!	!	!	!	!	!
2Bn\	.	.	2Bn\	-si-	.	2d\	-si-	.	.	.	.
!LO:TX:t=P:problem=kreska pseudotaktowa	!	!	!	!	!	!	!	!	!	!	!
2c\	.	.	2c\	-mo	.	2e\	-mo	.	.	.	.
=64-	=64-	=64-	=64-	=64-	=64-	=64-	=64-	=64-	=64-	=64-	=64-
1c	.	.	1c	ve-	.	1.d	ve-	.	.	.	.
!	!	!	!LO:N:acc=#	!	!	!	!	!	!	!	!
2B\	4 2	.	2Bn\	.	.	.	.	.	.	.	.
=65-	=65-	=65-	=65-	=65-	=65-	=65-	=65-	=65-	=65-	=65-	=65-
!LO:MO:mod=1c	!	!	!	!	!	!	!	!	!	!	!
[2c\	.	.	1c	-tro	.	2e\	-tro	.	.	.	.
!LO:MO:mod=.	!	!	!	!	!	!	!	!	!	!	!
2c\]	.	.	.	.	.	1cc	tem-	.	.	.	.
2C/	.	.	2r	.	.	.	.	.	.	.	.
=66-	=66-	=66-	=66-	=66-	=66-	=66-	=66-	=66-	=66-	=66-	=66-
2D/	.	.	1.r	.	.	2.fny\	-po	.	.	.	.
2D/	.	.	.	.	.	.	.	.	.	.	.
.	.	.	.	.	.	4b-\	di	.	.	.	.
2Eny\	.	.	.	.	.	4a\	gio-	.	.	.	.
.	.	.	.	.	.	4g\	-ven-	.	.	.	.
=67-	=67-	=67-	=67-	=67-	=67-	=67-	=67-	=67-	=67-	=67-	=67-
1.F	.	.	2r	.	.	1a	-tù	.	2r	.	.
!	!	!	!	!	!	!	!	!	!	!LO:SIC:s=tem-	!
.	.	.	2r	.	.	.	.	.	1ff	Tem-	.
!	!	!	!	!	!	!	!LO:SIC:s=non	!	!	!	!
.	.	.	2F\	non	.	2A/	no(n)	.	.	.	.
*	*	*	*custos:G	*	*	*	*	*	*custos:b	*	*
!	!	!	!LO:LB:g=original	!	!	!	!	!	!LO:LB:g=original	!	!
=68-	=68-	=68-	=68-	=68-	=68-	=68-	=68-	=68-	=68-	=68-	=68-
1G	.	.	2G\	tor-	.	2B-y/	tor-	.	2.b-y\	-po	.
!	!	!	!	!	!	!	!LO:SIC:s=-na	!	!	!	!
.	.	.	2G\	-na	.	2B-/	-na,	.	.	.	.
.	.	.	.	.	.	.	.	.	4ee-X\	di	.
2A\	.	.	2A\	in-	.	2r	.	.	4dd\	gio-	.
!	!	!	!	!	!	!	!	!	!	!LO:SIC:v:s=-ven-	!
.	.	.	.	.	.	.	.	.	4cc\	-uen-	.
=69-	=69-	=69-	=69-	=69-	=69-	=69-	=69-	=69-	=69-	=69-	=69-
1B-y	.	.	2B-y\	-die-	.	2r	.	.	1dd	-tù	.
.	.	.	2B-\	-tro	.	2r	.	.	.	.	.
!	!	!	!	!LO:SIC:s=non	!	!	!LO:SIC:s=non	!	!	!	!
2D/	6	.	2D/	no(n)	.	2b-\	no(n)	.	2dd\	non	.
=70-	=70-	=70-	=70-	=70-	=70-	=70-	=70-	=70-	=70-	=70-	=70-
2E-X\	.	.	2E-X\	tor-	.	2g\	tor-	.	2cc\	tor-	.
2F\	.	.	2F\	-na	.	2a\	-na	.	2cc\	-na	.
2G\	.	.	2G\	in-	.	2b-\	in-	.	2cc\	in-	.
*custos:F	*	*	*	*	*	*	*	*	*	*	*
!LO:LB:g=original	!	!	!	!	!	!	!	!	!	!	!
=71-	=71-	=71-	=71-	=71-	=71-	=71-	=71-	=71-	=71-	=71-	=71-
1.F	4	.	(2F\	-die-	.	1b-	-die-	.	1.cc	-die-	.
.	.	.	1FF)	.	.	.	.	.	.	.	.
!	!	!	!	!	!	!	!LO:SIC:s=-tro	!	!	!	!
.	3	.	.	.	.	(2a\	-tro’	.	.	.	.
=72-	=72-	=72-	=72-	=72-	=72-	=72-	=72-	=72-	=72-	=72-	=72-
!	!	!	!	!	!	!	!	!	!	!LO:SIC:s=-tro	!
2BB-/	.	.	2BB-/	-tro	.	1b-)	.	.	2dd\	-tro,	.
!	!	!	!	!LO:SIC:s=tem-	!	!	!	!	!	!	!
1B-	.	.	1B-	te(m)-	.	.	.	.	1dd	tem-	.
.	.	.	.	.	.	2r	.	.	.	.	.
=73-	=73-	=73-	=73-	=73-	=73-	=73-	=73-	=73-	=73-	=73-	=73-
2.F\	.	.	2.F\	-po	.	1.r	.	.	2.a\	-po	.
4B-\	.	.	4B-\	di	.	.	.	.	4dd\	di	.
4A\	.	.	4A\	gio-	.	.	.	.	4cc\	gio-	.
!	!	!	!	!LO:SIC:s=-ven-	!	!	!	!	!	!LO:SIC:s=-ven-	!
4G\	.	.	4G\	-ve(n)-	.	.	.	.	4b-\	-uen-	.
!	!	!	!	!	!	!LO:PB:g=original	!	!	!	!	!
=74-	=74-	=74-	=74-	=74-	=74-	=74-	=74-	=74-	=74-	=74-	=74-
!	!	!	!	!LO:SIC:s=-tù	!	!	!	!	!	!LO:SIC:s=-tù	!
1F	.	.	1F	-tu,	.	2r	.	.	1a	-tú,	.
.	.	.	.	.	.	1f	tem-	.	.	.	.
!	!	!	!	!LO:SIC:s=non	!	!	!	!	!	!	!
2FF/	.	.	2FF/	no(n)	.	.	.	.	2r	.	.
=75-	=75-	=75-	=75-	=75-	=75-	=75-	=75-	=75-	=75-	=75-	=75-
1GG	.	.	2GG/	tor-	.	2.B-/	-po	.	1.r	.	.
.	.	.	2GG/	-na	.	.	.	.	.	.	.
.	.	.	.	.	.	4e-X\	di	.	.	.	.
2AA/	.	.	2AA/	in-	.	4d\	gio-	.	.	.	.
!	!	!	!	!	!	!	!LO:SIC:s=-ven-	!	!	!	!
.	.	.	.	.	.	4c/	-ve(n)-	.	.	.	.
*	*	*	*	*	*	*	*	*	*custos:f	*	*
!	!	!	!	!	!	!	!	!	!LO:PB:g=original	!	!
=76-	=76-	=76-	=76-	=76-	=76-	=76-	=76-	=76-	=76-	=76-	=76-
1BB-	.	.	2BB-/	-die-	.	1d	-tù	.	2r	.	.
.	.	.	2BB-/	-tro	.	.	.	.	2r	.	.
!	!	!	!	!LO:SIC:s=non	!	!	!LO:SIC:s=non	!	!	!	!
2B-\	.	.	2B-\	no(n)	.	2d\	no(n)	.	2f/	non	.
=77-	=77-	=77-	=77-	=77-	=77-	=77-	=77-	=77-	=77-	=77-	=77-
1B-	4 #2	.	1B-	tor-	.	2eny\	tor-	.	2g/	tor-	.
.	.	.	.	.	.	2e\	-na	.	2g/	-na	.
2A\	.	.	(2A\	-na	.	2f#X\	in-	.	2a\	in-	.
*	*	*	*custos:G	*	*	*	*	*	*	*	*
!	!	!	!LO:LB:g=original	!	!	!	!	!	!	!	!
=78-	=78-	=78-	=78-	=78-	=78-	=78-	=78-	=78-	=78-	=78-	=78-
1.G	.	.	1G)	.	.	2g\	-die-	.	2b-\	-die-	.
.	.	.	.	.	.	2g\	-tro	.	2b-\	-tro	.
!	!	!	!	!	!	!	!	!	!LO:TX:t=P:problem=kreska pseudotaktowa	!	!
.	.	.	2G\	in-	.	2B-/	non	.	2d/	non	.
=79-	=79-	=79-	=79-	=79-	=79-	=79-	=79-	=79-	=79-	=79-	=79-
1G	-6r 4	.	1G	-die-	.	2c/	tor-	.	2e-X/	tor-	.
.	.	.	.	.	.	2c/	-na	.	2e-/	-na	.
!	!	!	!	!	!	!	!	!	!LO:TX:t=P:problem=kreska pseudotaktowa	!	!
2F\	6	.	(2F\	-tro	.	2d\	in-	.	2f/	in-	.
=80-	=80-	=80-	=80-	=80-	=80-	=80-	=80-	=80-	=80-	=80-	=80-
1.E-X	.	.	1E-X)	.	.	2e-X\	-die-	.	2g/	-die-	.
.	.	.	.	.	.	2e-\	-tro	.	2g/	-tro	.
!	!	!	!	!LO:SIC:s=non	!	!	!	!	!	!	!
.	.	.	2E-\	no(n)	.	2e-\	non	.	2g/	non	.
=81-	=81-	=81-	=81-	=81-	=81-	=81-	=81-	=81-	=81-	=81-	=81-
2A-X\	.	.	2A-X\	tor-	.	2c/	tor-	.	2e-X/	tor-	.
1F	.	.	2.F\	-na	.	2.d\	-na	.	2.f/	-na	.
.	.	.	4F\	in-	.	4c/	in-	.	4e-/	in-	.
*	*	*	*	*	*	*custos:c	*	*	*	*	*
!	!	!	!	!	!	!LO:LB:g=original	!	!	!	!	!
=82-	=82-	=82-	=82-	=82-	=82-	=82-	=82-	=82-	=82-	=82-	=82-
1.G	4	.	(2G\	-die-	.	1c	-die-	.	(2e-/	-die-	.
.	.	.	1GG)	.	.	.	.	.	1d)	.	.
!	!	!	!	!	!	!LO:N:acc=#	!	!	!	!	!
.	3	.	.	.	.	(2Bn/	-tro	.	.	.	.
=83-	=83-	=83-	=83-	=83-	=83-	=83-	=83-	=83-	=83-	=83-	=83-
1.C	-	.	2C/	-tro	.	2c/)	.	.	2e-/	-tro	.
.	.	.	1c	tem-	.	2r	.	.	2r	.	.
.	.	.	.	.	.	2r	.	.	2r	.	.
!	!	!	!	!	!	!	!	!	!LO:LB:g=original	!	!
=84-	=84-	=84-	=84-	=84-	=84-	=84-	=84-	=84-	=84-	=84-	=84-
1D	6	.	2.F\	-po	.	1.r	.	.	1.r	.	.
.	.	.	4B-\	di	.	.	.	.	.	.	.
2Eny\	.	.	4Any\	gio-	.	.	.	.	.	.	.
!	!	!	!	!LO:SIC:s=-ven-	!	!	!	!	!	!	!
.	.	.	4G\	-ve(n)-	.	.	.	.	.	.	.
=85-	=85-	=85-	=85-	=85-	=85-	=85-	=85-	=85-	=85-	=85-	=85-
1F	.	.	1A	-tù	.	2r	.	.	2r	.	.
!	!	!	!	!	!	!	!LO:SIC:s=tem-	!	!	!	!
.	.	.	.	.	.	1fny	Tem-	.	2r	.	.
!	!	!	!	!LO:SIC:s=non	!	!	!	!	!	!	!
2F\	.	.	2F\	no(n)	.	.	.	.	2a\	non	.
*custos:G	*	*	*	*	*	*	*	*	*	*	*
!LO:LB:g=original	!	!	!	!	!	!	!	!	!	!	!
=86-	=86-	=86-	=86-	=86-	=86-	=86-	=86-	=86-	=86-	=86-	=86-
1G	.	.	2G\	tor-	.	2.B-y/	-po	.	2b-\	tor-	.
.	.	.	2G\	-na	.	.	.	.	2b-\	-na	.
.	.	.	.	.	.	4e-X\	di	.	.	.	.
2Any\	.	.	2A\	in-	.	4d\	gio-	.	2cc\	in-	.
.	.	.	.	.	.	4c/	-ven-	.	.	.	.
=87-	=87-	=87-	=87-	=87-	=87-	=87-	=87-	=87-	=87-	=87-	=87-
!	!	!	!	!	!	!	!LO:SIC:v:s=-tù	!	!	!	!
1B-	.	.	2B-\	-die-	.	1d	-tu,	.	2f/	-die-	.
.	.	.	2B-\	-tro	.	.	.	.	2f/	-tro	.
2BB-/	.	.	2BB-/	non	.	2d\	non	.	2r	.	.
*	*	*	*custos:C	*	*	*	*	*	*	*	*
!	!	!	!LO:PB:g=original	!	!	!	!	!	!	!	!
=88-	=88-	=88-	=88-	=88-	=88-	=88-	=88-	=88-	=88-	=88-	=88-
2C/	.	.	2C/	tor-	.	2eny\	tor-	.	1.r	.	.
2D/	.	.	2D/	-na	.	2f#X\	-na	.	.	.	.
2E-X\	.	.	2E-X\	in-	.	2g\	in-	.	.	.	.
=89-	=89-	=89-	=89-	=89-	=89-	=89-	=89-	=89-	=89-	=89-	=89-
!	!	!	!	!	!	!LO:SIC:v:s=2f#	!	!	!	!	!
1.D	#	.	2D/	-die-	.	2fny\	-die-	.	2r	.	.
.	.	.	2D/	-tro	.	2d\	-tro	.	2r	.	.
!	!	!	!	!	!	!LO:SIC:v:s=2f#	!LO:SIC:s=non	!	!	!	!
.	.	.	2D/	non	.	2f\	no(n)	.	2dd\	non	.
=90-	=90-	=90-	=90-	=90-	=90-	=90-	=90-	=90-	=90-	=90-	=90-
1.C	-	.	2C/	tor-	.	2g\	tor-	.	2ee-X\	tor-	.
.	.	.	2C/	-na	.	2g\	-na	.	2cc\	-na	.
.	.	.	2C/	in-	.	2g\	in-	.	2b-\	in-	.
=91-	=91-	=91-	=91-	=91-	=91-	=91-	=91-	=91-	=91-	=91-	=91-
1.D	4	.	(>2D/	-die-	.	1g	-die-	.	(2b-\	-die-	.
.	.	.	1DD)	.	.	.	.	.	1a)	.	.
.	#	.	.	.	.	(2f#X\	-tro	.	.	.	.
!	!	!	!	!	!	!LO:LB:g=original	!	!	!	!	!
=92-	=92-	=92-	=92-	=92-	=92-	=92-	=92-	=92-	=92-	=92-	=92-
1GG	.	.	1GG	-tro	.	2g\)	.	.	1b-	-tro	.
.	.	.	.	.	.	1g	tem-	.	.	.	.
!	!	!	!	!LO:SIC:s=non	!	!	!	!	!	!	!
2G\	.	.	2G\	no(n)	.	.	.	.	2r	.	.
=93-	=93-	=93-	=93-	=93-	=93-	=93-	=93-	=93-	=93-	=93-	=93-
1A	.	.	2A\	tor-	.	2.c/	-po	.	1.r	.	.
.	.	.	2A\	-na	.	.	.	.	.	.	.
.	.	.	.	.	.	4fny\	di	.	.	.	.
!LO:N:acc=#	!	!	!LO:N:acc=#	!	!	!	!	!	!	!	!
2Bn\	.	.	2Bn\	in-	.	4e\	gio-	.	.	.	.
.	.	.	.	.	.	4d\	-ven-	.	.	.	.
=94-	=94-	=94-	=94-	=94-	=94-	=94-	=94-	=94-	=94-	=94-	=94-
1c	.	.	2c\	-die-	.	1e	-tù	.	2r	.	.
.	.	.	2c\	-tro	.	.	.	.	1cc	tem-	.
2c\	.	.	2r	.	.	2c/	non	.	.	.	.
!LO:MO:null:mod=*null	!	!	!	!	!	!	!	!	!	!	!
*clefC4	*	*	*	*	*	*	*	*	*	*	*
=95-	=95-	=95-	=95-	=95-	=95-	=95-	=95-	=95-	=95-	=95-	=95-
1d	.	.	1.r	.	.	2d\	tor-	.	2.f/	-po	.
.	.	.	.	.	.	2d\	-na	.	.	.	.
.	.	.	.	.	.	.	.	.	4b-\	di	.
2e\	.	.	.	.	.	2e\	in-	.	4a\	gio-	.
!	!	!	!	!	!	!	!	!	!	!LO:SIC:v:s=-ven-	!
.	.	.	.	.	.	.	.	.	4g/	-uen-	.
!	!	!	!	!	!	!	!	!	!LO:LB:g=original	!	!
=96-	=96-	=96-	=96-	=96-	=96-	=96-	=96-	=96-	=96-	=96-	=96-
!	!	!	!	!	!	!	!	!	!	!LO:SIC:v:s=-tù	!
1f	.	.	2r	.	.	2f\	-die-	.	1a	-tú	.
.	.	.	2r	.	.	2f\	-tro	.	.	.	.
!LO:MO:null:mod=*null	!	!	!	!	!	!	!	!	!	!	!
*clefF4	*	*	*	*	*	*	*	*	*	*	*
2F\	.	.	2F\	non	.	2a\	non	.	2cc\	non	.
!	!	!	!	!	!	!LO:MO:null:mod=*null	!	!	!	!	!
*	*	*	*	*	*	*clefC1	*	*	*	*	*
=97-	=97-	=97-	=97-	=97-	=97-	=97-	=97-	=97-	=97-	=97-	=97-
!	!	!	!	!	!	!LO:N:acc=#	!	!	!	!	!
1F	#4 2	.	1F	tor-	.	2bn\	tor-	.	2dd\	tor-	.
.	.	.	.	.	.	2b\	-na	.	2dd\	-na	.
2Eny\	.	.	2Eny\	-na	.	2cc\	in-	.	2eeny\	in-	.
*	*	*	*custos:D	*	*	*	*	*	*	*	*
!	!	!	!LO:LB:g=original	!	!	!	!	!	!	!	!
=98-	=98-	=98-	=98-	=98-	=98-	=98-	=98-	=98-	=98-	=98-	=98-
1D	.	.	1D	non	.	2dd\	-die-	.	2ff\	-die-	.
.	.	.	.	.	.	2.dd\	-tro	.	2.ff\	-tro	.
2AA/	6	.	2AA/	non	.	.	.	.	.	.	.
.	.	.	.	.	.	4cc\	non	.	4ee-X\	non	.
*custos:BB	*	*	*	*	*	*custos:b	*	*	*	*	*
!LO:LB:g=original	!	!	!	!	!	!LO:LB:g=original	!	!	!	!	!
=99-	=99-	=99-	=99-	=99-	=99-	=99-	=99-	=99-	=99-	=99-	=99-
1.BB-	.	.	2BB-/	tor-	.	4b-y\	tor-	.	4dd\	tor-	.
.	.	.	.	.	.	4cc\	.	.	4ee-\	.	.
.	.	.	2BB-/	-na	.	4b-\	.	.	4dd\	.	.
.	.	.	.	.	.	4a\	.	.	4cc\	.	.
.	.	.	2BB-/	in-	.	4g/	.	.	4b-\	.	.
.	.	.	.	.	.	4f/	.	.	4a\	.	.
!	!	!	!	!	!	!LO:MO:null:mod=*null	!	!	!	!	!
*	*	*	*	*	*	*clefC3	*	*	*	*	*
=100-	=100-	=100-	=100-	=100-	=100-	=100-	=100-	=100-	=100-	=100-	=100-
1C	.	.	2C/	-die-	.	2e\	.	.	2g/	.	.
!	!	!	!	!	!	!	!	!	!	!LO:SIC:s=-na	!
.	.	.	2C/	-tro	.	2e\	-na	.	2g/	-na,	.
!	!	!	!	!	!	!	!LO:SIC:s=non	!	!	!	!
2AA/	6	.	2AA/	non	.	2f\	no(n)	.	2cc\	non	.
=101-	=101-	=101-	=101-	=101-	=101-	=101-	=101-	=101-	=101-	=101-	=101-
2BB-/	.	.	2BB-/	tor-	.	2f\	tor-	.	2dd\	tor-	.
!LO:N:acc=#	!	!	!LO:N:acc=#	!	!	!	!	!	!	!	!
1BBn	.	.	2BBn/	-na	.	2f\	-na	.	2dd\	-na	.
.	.	.	2BB/	in-	.	2f\	in-	.	2dd\	in-	.
=102-	=102-	=102-	=102-	=102-	=102-	=102-	=102-	=102-	=102-	=102-	=102-
1.C	.	.	1.C	-die-	.	1f	-die-	.	1.g	-die-	.
!	!	!	!	!	!	!LO:SIC:s=(2e	!LO:MO:null:mod=-tro.	!	!	!	!
.	.	.	.	.	.	2e\	.	.	.	.	.
=103-	=103-	=103-	=103-	=103-	=103-	=103-	=103-	=103-	=103-	=103-	=103-
!LO:SIC:s=2FF;	!	!	!LO:SIC:s=2FF;	!LO:SIC:s=-tro.	!	!LO:MO:mod=2f;)	!LO:MO:mod=.	!	!LO:MO:mod=2a;	!LO:SIC:s=-tro.	!
2FF/	.	.	2FF/	-tro	.	1.f;<	-tro	.	1.a;	-tro	.
!	!	!	!	!	!	!LO:MO:null:mod=2r@	!	!	!LO:MO:null:mod=2r@	!	!
2r	.	.	2r	.	.	.	.	.	.	.	.
!	!	!	!	!	!	!LO:MO:null:mod=2r@	!	!	!LO:MO:null:mod=2r@	!	!
2r	.	.	2r	.	.	.	.	.	.	.	.
!	!	!	!	!	!	!	!	!	!LO:LB:g=original	!	!
=104||	=104||	=104||	=104||	=104||	=104||	=104||	=104||	=104||	=104||	=104||	=104||
*M4/4	*	*	*M4/4	*	*	*M4/4	*	*	*M4/4	*	*
*met(c)	*	*	*met(c)	*	*	*met(c)	*	*	*met(c)	*	*
*mmet(c)	*	*	*mmet(c)	*	*	*mmet(c)	*	*	*mmet(c)	*	*
2F\	.	.	00r	.	.	4r	.	.	1r	.	.
.	.	.	.	.	.	8r	.	.	.	.	.
.	.	.	.	.	.	8c/	S’of-	.	.	.	.
4F\	.	.	.	.	.	4f\	-fus-	.	.	.	.
4AA/	6	.	.	.	.	8f\	-ca	.	.	.	.
.	.	.	.	.	.	8f\	un	.	.	.	.
*	*	*	*	*	*	*custos:g	*	*	*	*	*
!	!	!	!	!	!	!LO:LB:g=original	!	!	!LO:LB:g=original	!	!
=105-	=105-	=105-	=105-	=105-	=105-	=105-	=105-	=105-	=105-	=105-	=105-
4BB-/	.	.	.	.	.	16g\LL	bel	.	2r	.	.
.	.	.	.	.	.	16f\	.	.	.	.	.
.	.	.	.	.	.	16g\	.	.	.	.	.
.	.	.	.	.	.	16a\JJ	.	.	.	.	.
4C/	.	.	.	.	.	8g\	.	.	.	.	.
.	.	.	.	.	.	8g\	se-	.	.	.	.
2F\	.	.	.	.	.	4a\	-re-	.	4r	.	.
.	.	.	.	.	.	8f\	-no	.	8r	.	.
!	!	!	!	!	!	!	!	!	!LO:TX:t=P:problem=kreska pseudotaktowa	!	!
.	.	.	.	.	.	8a\	la	.	8f/	S’of-	.
=106-	=106-	=106-	=106-	=106-	=106-	=106-	=106-	=106-	=106-	=106-	=106-
2E\	6	.	.	.	.	16g\LL	ro-	.	4cc\	-fu-	.
.	.	.	.	.	.	16f\	.	.	.	.	.
.	.	.	.	.	.	16g\	.	.	.	.	.
.	.	.	.	.	.	16a\JJ	.	.	.	.	.
.	.	.	.	.	.	8g\L	.	.	8cc\	-sca	.
.	.	.	.	.	.	16a\L	.	.	8cc\	un	.
.	.	.	.	.	.	16g\JJ	.	.	.	.	.
!LO:TX:t=P:problem=kreska pseudotaktowa	!	!	!	!	!	!	!	!	!	!	!
2D/	7	.	.	.	.	8f\	.	.	16dd\LL	bel	.
.	.	.	.	.	.	.	.	.	16cc\	.	.
.	.	.	.	.	.	8e\	-sa	.	16dd\	.	.
.	.	.	.	.	.	.	.	.	16ee\JJ	.	.
.	6	.	.	.	.	8f\	si	.	8dd\	.	.
!	!	!	!	!	!	!	!	!	!LO:TX:t=P:problem=kreska pseudotaktowa	!	!
.	.	.	.	.	.	8g\	sco-	.	8dd\	se-	.
=107-	=107-	=107-	=107-	=107-	=107-	=107-	=107-	=107-	=107-	=107-	=107-
2C/	.	.	.	.	.	4e\	-lo-	.	4ee\	-re-	.
.	.	.	.	.	.	8e\	-ra	.	8cc\	-no	.
.	.	.	.	.	.	8e\	la	.	8cc\	la	.
4D/	6	.	.	.	.	8f\	ro-	.	16b-\LL	ro-	.
.	.	.	.	.	.	.	.	.	16a\	.	.
.	.	.	.	.	.	8f\	-sa	.	16b-\	.	.
.	.	.	.	.	.	.	.	.	16cc\JJ	.	.
4E\	.	.	.	.	.	8.g\	si	.	8b-\L	.	.
.	.	.	.	.	.	.	.	.	16cc\L	.	.
!	!	!	!	!	!	!	!	!	!LO:TX:t=P:problem=kreska pseudotaktowa	!	!
.	.	.	.	.	.	16g\	sco-	.	16b-\JJ	.	.
*	*	*	*	*	*	*custos:c	*	*	*	*	*
!	!	!	!	!	!	!LO:LB:g=original	!	!	!	!	!
=108-	=108-	=108-	=108-	=108-	=108-	=108-	=108-	=108-	=108-	=108-	=108-
4F\	.	.	00r	.	.	4c/	-lo-	.	4a\	.	.
4FF/	.	.	.	.	.	8c/	-ra	.	8.a\	-sa	.
.	.	.	.	.	.	8f\	la	.	.	.	.
.	.	.	.	.	.	.	.	.	16a\	la	.
4GG/	-6r	.	.	.	.	16e-X\LL	ro-	.	8b-\	ro-	.
.	.	.	.	.	.	16d\	.	.	.	.	.
.	.	.	.	.	.	16e-\	.	.	8b-\	-sa	.
.	.	.	.	.	.	16f\JJ	.	.	.	.	.
4AA/	6	.	.	.	.	8e-\L	.	.	8cc\	si	.
.	.	.	.	.	.	16f\L	.	.	8cc\	sco-	.
!	!	!	!	!	!	!LO:TX:t=P:problem=kreska pseudotaktowa	!	!	!	!	!
.	.	.	.	.	.	16e-\JJ	.	.	.	.	.
*	*	*	*	*	*	*	*	*	*custos:f	*	*
!	!	!	!	!	!	!	!	!	!LO:LB:g=original	!	!
=109-	=109-	=109-	=109-	=109-	=109-	=109-	=109-	=109-	=109-	=109-	=109-
2BB-/	.	.	.	.	.	4d\	.	.	4f/	-lo-	.
.	.	.	.	.	.	8d\	-sa	.	8f/	-ra	.
.	.	.	.	.	.	8b-\	la	.	8dd\	la	.
4.F\	.	.	.	.	.	16a\LL	ro-	.	16cc\LL	ro-	.
.	.	.	.	.	.	16g\	.	.	16b-\	.	.
.	.	.	.	.	.	16a\	.	.	16cc\	.	.
.	.	.	.	.	.	16b-\JJ	.	.	16dd\JJ	.	.
.	.	.	.	.	.	8a\L	.	.	8cc\L	.	.
!LO:TX:t=P:problem=kreska pseudotaktowa	!	!	!	!	!	!	!	!	!	!	!
8D/	6	.	.	.	.	16b-\L	.	.	16dd\L	.	.
!	!	!	!	!	!	!LO:TX:t=P:problem=kreska pseudotaktowa	!	!	!LO:TX:t=P:problem=kreska pseudotaktowa	!	!
.	.	.	.	.	.	16a\JJ	.	.	16cc\JJ	.	.
=110-	=110-	=110-	=110-	=110-	=110-	=110-	=110-	=110-	=110-	=110-	=110-
4.E-X\	.	.	.	.	.	16g\LL	.	.	16b-\LL	.	.
!	!	!	!	!	!	!LO:TX:a:t=P:problem=# above	!	!	!	!	!
.	.	.	.	.	.	16f#X\	.	.	16a\	.	.
.	.	.	.	.	.	16g\	.	.	16b-\	.	.
.	.	.	.	.	.	16a\JJ	.	.	16cc\JJ	.	.
.	.	.	.	.	.	8g\L	.	.	8b-\L	.	.
8C/	.	.	.	.	.	16a\L	.	.	16cc\L	.	.
.	.	.	.	.	.	16g\JJ	.	.	16b-\JJ	.	.
*custos:D	*	*	*	*	*	*	*	*	*	*	*
!LO:LB:g=original	!	!	!	!	!	!	!	!	!	!	!
4.D/	#	.	.	.	.	4f#X\	.	.	4a\	.	.
!	!	!	!	!	!	!	!	!	!	!LO:SIC:s=-sa	!
.	.	.	.	.	.	8f#\	-sa	.	8a\	-sa,	.
!LO:TX:t=P:problem=kreska pseudotaktowa	!	!	!	!	!	!LO:TX:t=P:problem=kreska pseudotaktowa	!	!	!LO:TX:t=P:problem=kreska pseudotaktowa	!	!
8BB-/	.	.	.	.	.	8d\	la	.	8dd\	la	.
=111-	=111-	=111-	=111-	=111-	=111-	=111-	=111-	=111-	=111-	=111-	=111-
8C/L	.	.	.	.	.	8eny\	ro-	.	8cc\	ro-	.
8D/J	.	.	.	.	.	8f#X\	-sa	.	8cc\	-sa	.
*	*	*	*	*	*	*custos:g	*	*	*	*	*
!	!	!	!	!	!	!LO:LB:g=original	!	!	!	!	!
4E-X\	.	.	.	.	.	8g\	si	.	8cc\	si	.
.	.	.	.	.	.	8g\	sco-	.	8b-\	sco-	.
4C/	.	.	.	.	.	4.g\	-lo-	.	16a\LL	-lo-	.
.	.	.	.	.	.	.	.	.	16g\	.	.
.	.	.	.	.	.	.	.	.	16a\	.	.
.	.	.	.	.	.	.	.	.	16b-\JJ	.	.
!LO:TX:t=P:problem=kreska pseudotaktowa	!	!	!	!	!	!	!	!	!LO:TX:t=P:problem=kreska pseudotaktowa	!	!
4D/	4	.	.	.	.	.	.	.	4a\	.	.
!	!	!	!	!	!	!LO:TX:t=P:problem=kreska pseudotaktowa	!	!	!	!	!
.	3	.	.	.	.	(8f#X\	-ra	.	.	.	.
=112-	=112-	=112-	=112-	=112-	=112-	=112-	=112-	=112-	=112-	=112-	=112-
2GG/	.	.	00r	.	.	8g\)	.	.	4b-\	-ra	.
.	.	.	.	.	.	8d\	del	.	.	.	.
.	.	.	.	.	.	8g\	mar	.	4r	.	.
.	.	.	.	.	.	8fny\	si-	.	.	.	.
2C/	.	.	.	.	.	16e\LL	-tur-	.	2r	.	.
.	.	.	.	.	.	16f\	.	.	.	.	.
.	.	.	.	.	.	16g\	.	.	.	.	.
.	.	.	.	.	.	16f\JJ	.	.	.	.	.
.	.	.	.	.	.	16e\LL	.	.	.	.	.
!	!	!	!	!	!	!LO:SIC:s=16c	!	!	!	!	!
.	.	.	.	.	.	16c\JJ	.	.	.	.	.
!	!	!	!	!	!	!LO:SIC:s=16cc	!	!	!	!	!
.	.	.	.	.	.	16cc\LL	.	.	.	.	.
.	.	.	.	.	.	16b-\JJ	.	.	.	.	.
*	*	*	*	*	*	*	*	*	*custos:a	*	*
!	!	!	!	!	!	!	!	!	!LO:LB:g=original	!	!
=113-	=113-	=113-	=113-	=113-	=113-	=113-	=113-	=113-	=113-	=113-	=113-
2F\	.	.	.	.	.	16a\LL	.	.	00r	.	.
.	.	.	.	.	.	16b-\	.	.	.	.	.
.	.	.	.	.	.	16g\	.	.	.	.	.
.	.	.	.	.	.	16a\JJ	.	.	.	.	.
.	.	.	.	.	.	16f\LL	.	.	.	.	.
.	.	.	.	.	.	16g\	.	.	.	.	.
.	.	.	.	.	.	16e\	.	.	.	.	.
.	.	.	.	.	.	16f\JJ	.	.	.	.	.
!	!	!	!	!	!	!LO:SIC:s=4d	!	!	!	!	!
2BB-/	7	.	.	.	.	[4d\	.	.	.	.	.
!	!	!	!	!	!	!LO:SIC:s=(16dLL	!	!	!	!	!
.	.	.	.	.	.	(16d\LL]	-ba	.	.	.	.
.	.	.	.	.	.	16c\JJ)	.	.	.	.	.
.	6	.	.	.	.	(16d\LL	il	.	.	.	.
.	.	.	.	.	.	16e\JJ)	.	.	.	.	.
=114-	=114-	=114-	=114-	=114-	=114-	=114-	=114-	=114-	=114-	=114-	=114-
4.AA/	#	.	.	.	.	8c#X/	se-	.	.	.	.
.	.	.	.	.	.	8A/	-no	.	.	.	.
.	.	.	.	.	.	8r	.	.	.	.	.
8FF/	.	.	.	.	.	8A/	si	.	.	.	.
*	*	*	*	*	*	*custos:B	*	*	*	*	*
!	!	!	!	!	!	!LO:LB:g=original	!	!	!	!	!
!	!	!	!	!	!	!LO:N:acc=#	!	!	!	!	!
4GG/	#	.	.	.	.	16Bn/LL	fran-	.	.	.	.
!	!	!	!	!	!	!LO:TX:b:t=P:problem=# below	!	!	!	!	!
.	.	.	.	.	.	16c#X/	.	.	.	.	.
.	.	.	.	.	.	16d/	.	.	.	.	.
.	.	.	.	.	.	16e/JJ	.	.	.	.	.
4AA/	#	.	.	.	.	16c#\LL	.	.	.	.	.
.	.	.	.	.	.	16d\	.	.	.	.	.
.	.	.	.	.	.	16B\	.	.	.	.	.
.	.	.	.	.	.	16c#\JJ	.	.	.	.	.
=115-	=115-	=115-	=115-	=115-	=115-	=115-	=115-	=115-	=115-	=115-	=115-
4BB-/	.	.	.	.	.	16d\LL	.	.	.	.	.
.	.	.	.	.	.	16e\	.	.	.	.	.
.	.	.	.	.	.	16f\	.	.	.	.	.
.	.	.	.	.	.	16g\JJ	.	.	.	.	.
4C/	.	.	.	.	.	16e\LL	.	.	.	.	.
.	.	.	.	.	.	16f\	.	.	.	.	.
.	.	.	.	.	.	16d\	.	.	.	.	.
.	.	.	.	.	.	16e\JJ	.	.	.	.	.
!LO:TX:t=P:problem=kreska pseudotaktowa	!	!	!	!	!	!	!	!	!	!	!
2D/	.	.	.	.	.	8f\	.	.	.	.	.
.	.	.	.	.	.	8f\	-ge	.	.	.	.
.	.	.	.	.	.	8r	.	.	.	.	.
!	!	!	!	!	!	!LO:TX:t=P:problem=kreska pseudotaktowa	!	!	!	!	!
.	.	.	.	.	.	8a\	a-	.	.	.	.
=116-	=116-	=116-	=116-	=116-	=116-	=116-	=116-	=116-	=116-	=116-	=116-
2GG/	.	.	00r	.	.	16b-X\LL	-la-	.	.	.	.
.	.	.	.	.	.	16a\	.	.	.	.	.
.	.	.	.	.	.	16g\	.	.	.	.	.
.	.	.	.	.	.	16f\JJ	.	.	.	.	.
!	!	!	!	!	!	!LO:SIC:s=16eLL	!	!	!	!	!
.	.	.	.	.	.	(16e\LL	.	.	.	.	.
!	!	!	!	!	!	!LO:SIC:s=16dJJ	!	!	!	!	!
.	.	.	.	.	.	16d\JJ)	.	.	.	.	.
.	.	.	.	.	.	(16g\LL	-ta	.	.	.	.
.	.	.	.	.	.	16a\JJ)	.	.	.	.	.
2AA/	6 4	.	.	.	.	8f\L	pro-	.	.	.	.
.	.	.	.	.	.	16g\L	.	.	.	.	.
.	.	.	.	.	.	16f\JJ	.	.	.	.	.
.	5 3	.	.	.	.	4e\	.	.	.	.	.
=117-	=117-	=117-	=117-	=117-	=117-	=117-	=117-	=117-	=117-	=117-	=117-
2D/	.	.	.	.	.	4d\	-ra	.	8r	.	.
.	.	.	.	.	.	.	.	.	8a\	del	.
.	.	.	.	.	.	4r	.	.	8dd\	mar	.
.	.	.	.	.	.	.	.	.	8cc\	si-	.
2GG/	.	.	.	.	.	2r	.	.	16b-\LL	-tur-	.
.	.	.	.	.	.	.	.	.	16cc\	.	.
.	.	.	.	.	.	.	.	.	16a\	.	.
.	.	.	.	.	.	.	.	.	16b-\JJ	.	.
.	.	.	.	.	.	.	.	.	8g/	.	.
.	.	.	.	.	.	.	.	.	16f/	-ba	.
!	!	!	!	!	!	!	!	!	!LO:TX:t=P:problem=kreska pseudotaktowa	!	!
.	.	.	.	.	.	.	.	.	16g/	il	.
=118-	=118-	=118-	=118-	=118-	=118-	=118-	=118-	=118-	=118-	=118-	=118-
4.C/	.	.	.	.	.	0r	.	.	8e/	se-	.
.	.	.	.	.	.	.	.	.	8c/	-no	.
.	.	.	.	.	.	.	.	.	8r	.	.
8C/	.	.	.	.	.	.	.	.	8e/	si	.
4D/	.	.	.	.	.	.	.	.	16f/LL	fran-	.
.	.	.	.	.	.	.	.	.	16g/	.	.
.	.	.	.	.	.	.	.	.	16a/	.	.
.	.	.	.	.	.	.	.	.	16b-/JJ	.	.
4Eny\	6	.	.	.	.	.	.	.	16g/LL	.	.
.	.	.	.	.	.	.	.	.	16a/	.	.
.	.	.	.	.	.	.	.	.	16f/	.	.
!	!	!	!	!	!	!	!	!	!LO:TX:t=P:problem=kreska pseudotaktowa	!	!
.	.	.	.	.	.	.	.	.	16g/JJ	.	.
=119-	=119-	=119-	=119-	=119-	=119-	=119-	=119-	=119-	=119-	=119-	=119-
4F\	.	.	.	.	.	.	.	.	4a\	.	.
4FF/	.	.	.	.	.	.	.	.	8a\	-ge	.
.	.	.	.	.	.	.	.	.	8a\	si	.
4GG/	-6r	.	.	.	.	.	.	.	16b-\LL	fran-	.
.	.	.	.	.	.	.	.	.	16cc\	.	.
.	.	.	.	.	.	.	.	.	16dd\	.	.
.	.	.	.	.	.	.	.	.	16ee-X\JJ	.	.
4AA/	.	.	.	.	.	.	.	.	16cc\LL	.	.
.	.	.	.	.	.	.	.	.	16dd\	.	.
.	.	.	.	.	.	.	.	.	16b-\	.	.
.	.	.	.	.	.	.	.	.	16cc\JJ	.	.
*custos:BB	*	*	*	*	*	*	*	*	*custos:dd	*	*
!LO:PB:g=original	!	!	!	!	!	!	!	!	!LO:LB:g=original	!	!
=120-	=120-	=120-	=120-	=120-	=120-	=120-	=120-	=120-	=120-	=120-	=120-
2BB-/	.	.	00r	.	.	1r	.	.	4dd\	.	.
.	.	.	.	.	.	.	.	.	8dd\	-ge	.
.	.	.	.	.	.	.	.	.	8dd\	a-	.
2C/	-	.	.	.	.	.	.	.	16ee-X\LL	-la-	.
.	.	.	.	.	.	.	.	.	16dd\	.	.
.	.	.	.	.	.	.	.	.	16cc\	.	.
.	.	.	.	.	.	.	.	.	16b-\JJ	.	.
.	.	.	.	.	.	.	.	.	16a\LL	.	.
.	.	.	.	.	.	.	.	.	16g\JJ	.	.
.	.	.	.	.	.	.	.	.	(16cc\LL	-ta	.
!	!	!	!	!	!	!	!	!	!LO:TX:t=P:problem=kreska pseudotaktowa	!	!
.	.	.	.	.	.	.	.	.	16dd\JJ)	.	.
!	!	!	!	!	!	!LO:PB:g=original	!	!	!	!	!
=121-	=121-	=121-	=121-	=121-	=121-	=121-	=121-	=121-	=121-	=121-	=121-
2D/	6 4	.	.	.	.	2r	.	.	8b-\L	pro-	.
.	.	.	.	.	.	.	.	.	16cc\L	.	.
.	.	.	.	.	.	.	.	.	16b-\JJ	.	.
.	5 3	.	.	.	.	.	.	.	4a\	.	.
!LO:TX:t=P:problem=kreska pseudotaktowa	!	!	!	!	!	!	!	!	!	!	!
2G\	.	.	.	.	.	4r	.	.	2g/	-ra	.
.	.	.	.	.	.	8r	.	.	.	.	.
!	!	!	!	!	!	!LO:TX:t=P:problem=kreska pseudotaktowa	!	!	!	!	!
.	.	.	.	.	.	8d\	S’of-	.	.	.	.
=122-	=122-	=122-	=122-	=122-	=122-	=122-	=122-	=122-	=122-	=122-	=122-
!LO:MO:mod=2.G	!	!	!	!	!	!	!	!	!	!	!
[2G\	.	.	.	.	.	4g\	-fus-	.	1r	.	.
.	.	.	.	.	.	8g\	-ca	.	.	.	.
.	.	.	.	.	.	8g\	un	.	.	.	.
!LO:MO:mod=.	!	!	!	!	!	!	!	!	!	!	!
4G\]	4 2	.	.	.	.	16a\LL	bel	.	.	.	.
.	.	.	.	.	.	16g\	.	.	.	.	.
.	.	.	.	.	.	16a\	.	.	.	.	.
.	.	.	.	.	.	16b-\JJ	.	.	.	.	.
4F#X\	6	.	.	.	.	8a\	.	.	.	.	.
!	!	!	!	!	!	!LO:TX:t=P:problem=kreska pseudotaktowa	!	!	!	!	!
.	.	.	.	.	.	8a\	se-	.	.	.	.
=123-	=123-	=123-	=123-	=123-	=123-	=123-	=123-	=123-	=123-	=123-	=123-
2G\	.	.	.	.	.	4b-\	-re-	.	4r	.	.
!	!	!	!	!	!	!	!LO:SIC:s=-no	!	!	!	!
.	.	.	.	.	.	8g\	-no,	.	8r	.	.
.	.	.	.	.	.	8b-\	la	.	8g/	S’of-	.
!LO:TX:t=P:problem=kreska pseudotaktowa	!	!	!	!	!	!	!	!	!	!LO:SIC:s=-fus-	!
2Fny\	6	.	.	.	.	16a\LL	ro-	.	4dd\	-fri-	.
.	.	.	.	.	.	16g\	.	.	.	.	.
.	.	.	.	.	.	16a\	.	.	.	.	.
.	.	.	.	.	.	16b-\JJ	.	.	.	.	.
!	!	!	!	!	!	!	!	!	!	!LO:SIC:s=-ca	!
.	.	.	.	.	.	8a\L	.	.	8dd\	-sca	.
!	!	!	!	!	!	!	!	!	!LO:TX:t=P:problem=kreska pseudotaktowa	!	!
.	.	.	.	.	.	16b-\L	.	.	8dd\	un	.
!	!	!	!	!	!	!LO:TX:t=P:problem=kreska pseudotaktowa	!	!	!	!	!
.	.	.	.	.	.	16a\JJ	.	.	.	.	.
=124-	=124-	=124-	=124-	=124-	=124-	=124-	=124-	=124-	=124-	=124-	=124-
2E\	7	.	00r	.	.	8g\	.	.	16eeny\LL	bel	.
.	.	.	.	.	.	.	.	.	16dd\	.	.
.	.	.	.	.	.	8f\	-sa	.	16ee\	.	.
.	.	.	.	.	.	.	.	.	16ff\JJ	.	.
.	6	.	.	.	.	8g\	si	.	8ee\	.	.
.	.	.	.	.	.	8a\	sco-	.	8ee\	se-	.
2D/	.	.	.	.	.	4f\	-lo-	.	4ff\	-re-	.
.	.	.	.	.	.	8f\	-ra	.	8dd\	-no	.
.	.	.	.	.	.	8f\	la	.	8ff\	la	.
*	*	*	*	*	*	*custos:g	*	*	*	*	*
!	!	!	!	!	!	!LO:LB:g=original	!	!	!LO:LB:g=original	!	!
=125-	=125-	=125-	=125-	=125-	=125-	=125-	=125-	=125-	=125-	=125-	=125-
8E-X\L	.	.	.	.	.	8g\	ro-	.	8ee-X\	ro-	.
8F\J	.	.	.	.	.	8a\	-sa	.	8dd\	-sa	.
4G\	.	.	.	.	.	8b-\	si	.	8.dd\	si	.
.	.	.	.	.	.	8b-\	sco-	.	.	.	.
.	.	.	.	.	.	.	.	.	16cc\	sco-	.
4E-\	6 5	.	.	.	.	4.b-\	-lo-	.	16cc\LL	-lo-	.
.	.	.	.	.	.	.	.	.	16b-\	.	.
.	.	.	.	.	.	.	.	.	16cc\	.	.
.	.	.	.	.	.	.	.	.	16dd\JJ	.	.
4F\	.	.	.	.	.	.	.	.	4cc\	.	.
!	!	!	!	!	!	!LO:TX:t=P:problem=kreska pseudotaktowa	!	!	!	!	!
.	.	.	.	.	.	(8a\	-ra	.	.	.	.
=126-	=126-	=126-	=126-	=126-	=126-	=126-	=126-	=126-	=126-	=126-	=126-
2BB-/	.	.	.	.	.	8b-\)	.	.	4dd\	-ra	.
.	.	.	.	.	.	8f\	del	.	.	.	.
.	.	.	.	.	.	8b-\	mar	.	4r	.	.
.	.	.	.	.	.	8a\	si-	.	.	.	.
!	!	!	!	!	!	!	!	!	!LO:TX:t=P:problem=kreska pseudotaktowa	!	!
2E-X\	.	.	.	.	.	16g\LL	-tur-	.	2r	.	.
.	.	.	.	.	.	16a\	.	.	.	.	.
.	.	.	.	.	.	16f\	.	.	.	.	.
.	.	.	.	.	.	16g\JJ	.	.	.	.	.
.	.	.	.	.	.	16e-X\LL	.	.	.	.	.
.	.	.	.	.	.	16f\	.	.	.	.	.
.	.	.	.	.	.	16d\	.	.	.	.	.
!	!	!	!	!	!	!LO:TX:t=P:problem=kreska pseudotaktowa	!	!	!	!	!
.	.	.	.	.	.	16e-\JJ	.	.	.	.	.
=127-	=127-	=127-	=127-	=127-	=127-	=127-	=127-	=127-	=127-	=127-	=127-
2F\	.	.	.	.	.	4cny/	.	.	8r	.	.
.	.	.	.	.	.	.	.	.	8cc\	del	.
.	.	.	.	.	.	8c/	-ba	.	8ff\	mar	.
.	.	.	.	.	.	8c/	si	.	8ee-X\	si-	.
2BB-/	5	.	.	.	.	8d\L	tur-	.	16dd\LL	-tur-	.
.	.	.	.	.	.	.	.	.	16ee-\	.	.
!	!	!	!	!	!	!LO:SIC:v:s=16e-L	!	!	!	!	!
.	.	.	.	.	.	16eny\L	.	.	16cc\	.	.
.	.	.	.	.	.	16f\JJ	.	.	16dd\JJ	.	.
.	6	.	.	.	.	8g\	.	.	8b-\	.	.
.	.	.	.	.	.	16f\	-ba	.	16a\	-ba	.
!	!	!	!	!	!	!	!	!	!LO:TX:t=P:problem=kreska pseudotaktowa	!	!
.	.	.	.	.	.	16g\	il	.	16b-\	il	.
*	*	*	*	*	*	*custos:e	*	*	*	*	*
!	!	!	!	!	!	!LO:LB:g=original	!	!	!	!	!
=128-	=128-	=128-	=128-	=128-	=128-	=128-	=128-	=128-	=128-	=128-	=128-
2C/	.	.	0r	.	.	4e\	se-	.	4g/	se-	.
.	.	.	.	.	.	4e\	-no	.	8g/	-no	.
.	.	.	.	.	.	.	.	.	8g/	si	.
!	!	!	!	!	!	!	!	!	!	!LO:SIC:s=fran-	!
4C/	.	.	.	.	.	8r	.	.	4cc\	fra(n)-	.
.	.	.	.	.	.	8c/	si	.	.	.	.
4AA/	6	.	.	.	.	8f\	fran-	.	8cc\	-ge	.
.	.	.	.	.	.	8e-X\	ge_a-	.	8cc\	a-	.
!	!	!	!	!	!	!	!	!	!LO:PB:g=original	!	!
=129-	=129-	=129-	=129-	=129-	=129-	=129-	=129-	=129-	=129-	=129-	=129-
!	!	!	!	!	!	!LO:SIC:s=(16dLL	!	!	!	!	!
4BB-/	.	.	.	.	.	16d\LL	-la-	.	(16b-\LL	-la-	.
!	!	!	!	!	!	!LO:SIC:s=16e-JJ)	!	!	!	!	!
.	.	.	.	.	.	16e-\JJ	.	.	16cc\JJ)	.	.
.	.	.	.	.	.	8f\	-ta	.	(16b-\LL	-ta	.
.	.	.	.	.	.	.	.	.	16a\JJ)	.	.
4C/	.	.	.	.	.	8.f\	pro-	.	4g/	pro-	.
!	!	!	!	!	!	!LO:SIC:s=(16e	!	!	!	!	!
.	.	.	.	.	.	(16eny\	-ra	.	.	.	.
2F\	.	.	.	.	.	4f\)	.	.	8a\	-ra	.
.	.	.	.	.	.	.	.	.	8cc\	si	.
!	!	!	!	!	!	!	!	!	!LO:TX:t=P:problem=kreska pseudotaktowa	!	!
.	.	.	.	.	.	8r	.	.	4ff\	fran-	.
.	.	.	.	.	.	8f\	si	.	.	.	.
*custos:D	*	*	*	*	*	*	*	*	*	*	*
!LO:LB:g=original	!	!	!	!	!	!	!	!	!	!	!
=130-	=130-	=130-	=130-	=130-	=130-	=130-	=130-	=130-	=130-	=130-	=130-
4D/	6	.	1r	.	.	8b-\	fran-	.	8ff\	-ge	.
.	.	.	.	.	.	8a\	ge_a-	.	8ff\	a-	.
4E-X\	.	.	.	.	.	(16g\LL	-la-	.	(16ee-X\LL	-la-	.
.	.	.	.	.	.	16a\JJ)	.	.	16ff\JJ)	.	.
.	.	.	.	.	.	8b-\	-ta	.	(16ee-\LL	-ta	.
.	.	.	.	.	.	.	.	.	16dd\JJ)	.	.
4F\	.	.	.	.	.	4.b-\	pro-	.	(16cc\LL	pro-	.
.	.	.	.	.	.	.	.	.	16b-\	.	.
.	.	.	.	.	.	.	.	.	16cc\	.	.
.	.	.	.	.	.	.	.	.	16dd\JJ	.	.
!	!	!	!	!	!	!	!	!	!LO:TX:t=P:problem=kreska pseudotaktowa	!	!
4FF/	4	.	.	.	.	.	.	.	4cc\)	.	.
!	!	!	!	!	!	!	!LO:SIC:s=-ra	!	!	!	!
.	3	.	.	.	.	(8a\	-ra,	.	.	.	.
=131-	=131-	=131-	=131-	=131-	=131-	=131-	=131-	=131-	=131-	=131-	=131-
4.BB-/	.	.	4r	.	.	4b-\)	.	.	4dd\	-ra	.
.	.	.	8r	.	.	8r	.	.	8r	.	.
!LO:TX:b:t=a 3	!	!	!	!	!	!	!	!	!	!	!
8B-\	.	.	8B-\	si	.	8d\	si	.	8f/	si	.
!LO:TX:t=P:problem=kreska pseudotaktowa	!	!	!	!	!	!	!	!	!	!	!
2B-\	.	.	4.B-\	strug-	.	4.d\	strug-	.	4.f/	strug-	.
!	!	!	!	!	!	!	!	!	!LO:TX:t=P:problem=kreska pseudotaktowa	!	!
.	.	.	8B-\	-go-	.	8d\	-go-	.	8f/	-go-	.
*	*	*	*custos:G	*	*	*custos:e	*	*	*	*	*
!	!	!	!LO:LB:g=original	!	!	!LO:LB:g=original	!	!	!	!	!
=132-	=132-	=132-	=132-	=132-	=132-	=132-	=132-	=132-	=132-	=132-	=132-
4G\	.	.	4G\	-no	.	4.e-X\	-no	.	4.g/	-no	.
4E-X\	.	.	4E-X\	le	.	.	.	.	.	.	.
.	.	.	.	.	.	8e-\	le	.	8g/	le	.
2B-\	.	.	4B-\	ne-	.	4d\	ne-	.	4f/	ne-	.
!	!	!	!	!LO:SIC:s=-vi	!	!	!LO:SIC:s=-vi	!	!	!LO:SIC:s=-vi	!
.	.	.	4B-\	-oi	.	4d\	-ui	.	4f/	-ui	.
*	*	*	*	*	*	*	*	*	*custos:b	*	*
!	!	!	!	!	!	!	!	!	!LO:LB:g=original	!	!
=133-	=133-	=133-	=133-	=133-	=133-	=133-	=133-	=133-	=133-	=133-	=133-
4r	.	.	4r	.	.	4r	.	.	4r	.	.
4E-X\	.	.	4E-X\	si	.	4g\	si	.	4b-\	si	.
2E-\	.	.	4.E-\	strug-	.	4.g\	strug-	.	4.b-\	strug-	.
.	.	.	8E-\	-go-	.	8g\	-go-	.	8b-\	-go-	.
=134-	=134-	=134-	=134-	=134-	=134-	=134-	=134-	=134-	=134-	=134-	=134-
4C/	.	.	4C/	-no	.	4a-X\	-no	.	4.cc\	-no	.
4AA-X/	.	.	4AA-X/	le	.	4a-\	le	.	.	.	.
.	.	.	.	.	.	.	.	.	8cc\	le	.
2E-X\	.	.	4E-X\	ne-	.	4g\	ne-	.	4b-\	ne-	.
!	!	!	!	!LO:SIC:s=-vi.	!	!	!LO:SIC:s=-vi.	!	!	!LO:SIC:s=-vi.	!
.	.	.	4E-\	-oi	.	4g\	-ui	.	4b-\	-ui	.
=135-	=135-	=135-	=135-	=135-	=135-	=135-	=135-	=135-	=135-	=135-	=135-
*M3/2	*	*	*M3/2	*	*	*M3/2	*	*	*M3/2	*	*
2r	.	.	2r	.	.	2r	.	.	2r	.	.
!	!	!	!	!LO:SIC:s=Gl’an-	!	!	!	!	!	!LO:SIC:s=Gl’an-	!
2E-X\	.	.	2E-X\	gl’an-	.	2g\	Gl’an-	.	2b-\	gl’an-	.
!	!	!	!	!	!	!LO:TX:t=P:problem=kreska pseudotaktowa	!	!	!LO:TX:t=P:problem=kreska pseudotaktowa	!	!
2D/	6	.	2D/	-ni	.	2f\	-ni	.	2b-\	-ni	.
=136-	=136-	=136-	=136-	=136-	=136-	=136-	=136-	=136-	=136-	=136-	=136-
2E-\	.	.	2E-X\	d’u-	.	2g\	d’u-	.	2b-\	d’u-	.
2D/	.	.	2D/	-na	.	2f\	-na	.	2b-\	-na	.
2C/	-6r	.	2C/	bel-	.	2e-X\	bel-	.	2a\	bel-	.
=137-	=137-	=137-	=137-	=137-	=137-	=137-	=137-	=137-	=137-	=137-	=137-
2BB-/	.	.	2BB-/	-tà	.	2d\	-tà	.	2b-\	-tà	.
1B-	.	.	1B-	quan-	.	1d	quan-	.	2r	.	.
.	.	.	.	.	.	.	.	.	2r	.	.
*	*	*	*	*	*	*custos:c	*	*	*	*	*
!	!	!	!	!	!	!LO:LB:g=original	!	!	!	!	!
=138-	=138-	=138-	=138-	=138-	=138-	=138-	=138-	=138-	=138-	=138-	=138-
1.A-X	6	.	1A-X	-to	.	2c/	-to	.	1.r	.	.
.	.	.	.	.	.	1f	quan-	.	.	.	.
.	.	.	2A-\	son	.	.	.	.	.	.	.
=139-	=139-	=139-	=139-	=139-	=139-	=139-	=139-	=139-	=139-	=139-	=139-
!	!	!	!	!	!	!LO:SIC:v:s=1e-	!	!	!	!	!
1.G	6	.	1.G	bre-	.	1eny	-to	.	2r	.	.
.	.	.	.	.	.	.	.	.	1b-	quan-	.
!	!	!	!	!	!	!LO:SIC:v:s=2e-	!	!	!	!	!
.	.	.	.	.	.	2e\	son	.	.	.	.
=140-	=140-	=140-	=140-	=140-	=140-	=140-	=140-	=140-	=140-	=140-	=140-
!	!	!	!	!LO:SIC:s=-vi	!	!	!	!	!	!	!
1.F	-	.	1.F	-ui	.	1f	bre-	.	1.a-X	-to	.
!	!	!	!	!	!	!	!LO:SIC:s=-vi	!	!	!	!
.	.	.	.	.	.	2e-X\	-ui	.	.	.	.
*custos:BB	*	*	*	*	*	*	*	*	*	*	*
!LO:LB:g=original	!	!	!LO:LB:g=original	!	!	!	!	!	!	!	!
=141-	=141-	=141-	=141-	=141-	=141-	=141-	=141-	=141-	=141-	=141-	=141-
2BB-/	.	.	2BB-/	quan-	.	2d\	quan-	.	2g/	quan-	.
2C/	.	.	2C/	-to	.	2eny\	-to	.	2g/	-to	.
2D/	.	.	2D/	son	.	2f\	son	.	2g/	son	.
!	!	!	!	!	!	!	!	!	!LO:LB:g=original	!	!
=142-	=142-	=142-	=142-	=142-	=142-	=142-	=142-	=142-	=142-	=142-	=142-
1.C	4	.	1.C	bre-	.	1f	bre-	.	1.g	bre-	.
!	!	!	!	!	!	!	!LO:SIC:s=-vi	!	!	!	!
.	3	.	.	.	.	(2e\	-ui	.	.	.	.
=143-	=143-	=143-	=143-	=143-	=143-	=143-	=143-	=143-	=143-	=143-	=143-
!	!	!	!	!LO:SIC:s=-vi	!	!	!	!	!	!LO:SIC:s=-vi	!
2FF/	.	.	2FF/	-ui:	.	2f\)	.	.	2a-X\	-ui	.
!	!	!	!	!LO:SIC:v:s=gl’an-	!	!	!	!	!	!	!
2F\	-	.	2F\	gla(n)-	.	2a-X\	gl’an-	.	2r	.	.
2Eny\	6	.	2Eny\	-ni	.	2g\	-ni	.	2r	.	.
=144-	=144-	=144-	=144-	=144-	=144-	=144-	=144-	=144-	=144-	=144-	=144-
!	!	!	!	!LO:SIC:v:s=d’u-	!	!	!	!	!	!	!
2F\	-	.	2F\	du-	.	2a-\	d’u-	.	1.r	.	.
2E-X\	.	.	2E-X\	-na	.	2g\	-na	.	.	.	.
2D/	.	.	2D/	bel-	.	2f\	bel-	.	.	.	.
=145-	=145-	=145-	=145-	=145-	=145-	=145-	=145-	=145-	=145-	=145-	=145-
!	!	!	!	!LO:SIC:v:s=-tà	!	!	!	!	!	!	!
1C	-	.	2C/	-ta	.	2e-X\	-tà	.	2r	.	.
*	*	*	*	*	*	*	*ij	*	*	*	*
!	!	!	!	!LO:SIC:s=quan-	!	!	!	!	!	!	!
.	.	.	2C/	qua(n)-	.	2cc\	gl’an-	.	2ee-X\	gl’an-	.
!LO:TX:t=P:problem=kreska pseudotaktowa	!	!	!	!	!	!	!	!	!	!	!
2G\	.	.	2G\	-to	.	2b-\	-ni	.	2dd\	-ni	.
!	!	!	!	!	!	!LO:LB:g=original	!	!	!	!	!
=146-	=146-	=146-	=146-	=146-	=146-	=146-	=146-	=146-	=146-	=146-	=146-
!	!	!	!	!LO:SIC:s=quan-	!	!	!	!	!	!LO:SIC:v:s=d’u-	!
2C/	.	.	2C/	qua(n)-	.	2cc\	d’u-	.	(2ee-\	du-	.
1D	6	.	2.D/	-to	.	2b-\	-na	.	2dd\)	.	.
!	!	!	!	!	!	!	!	!	!LO:TX:t=P:problem=kreska pseudotaktowa	!	!
.	.	.	.	.	.	2any\	bel-	.	2cc\	-na	.
!	!	!	!	!LO:SIC:s=son	!	!	!	!	!	!	!
.	.	.	4D/	so(n)	.	.	.	.	.	.	.
=147-	=147-	=147-	=147-	=147-	=147-	=147-	=147-	=147-	=147-	=147-	=147-
1.E-X	.	.	2E-X\	bre-	.	2g\	-tà	.	2b-\	bel-	.
*	*	*	*	*	*	*	*Xij	*	*	*	*
!	!	!	!	!LO:SIC:s=-vi	!	!	!	!	!	!	!
.	.	.	2E-\	-ui	.	[1g	quan-	.	1b-	-tà	.
!	!	!	!LO:TX:t=P:problem=kreska pseudotaktowa	!LO:SIC:s=quan-	!	!	!	!	!	!	!
.	.	.	2E-\	qua(n)-	.	.	.	.	.	.	.
=148-	=148-	=148-	=148-	=148-	=148-	=148-	=148-	=148-	=148-	=148-	=148-
1.F	-9r	.	1.F	-to	.	2g\]	.	.	2a-X\	quan-	.
.	8	.	.	.	.	1f	-to	.	1a-	-to	.
=149-	=149-	=149-	=149-	=149-	=149-	=149-	=149-	=149-	=149-	=149-	=149-
!	!	!	!	!LO:SIC:s=quan-	!	!	!LO:SIC:s=quan-	!	!	!LO:SIC:s=quan-	!
1G	7	.	2G\	qua(n)-	.	2f\	qua(n)-	.	2g/	qua(n)-	.
.	6	.	2G\	-to	.	2e-X\	-to	.	(2g/	-to	.
2A-X\	.	.	2A-X\	son	.	2e-\	son	.	2f/)	.	.
=150-	=150-	=150-	=150-	=150-	=150-	=150-	=150-	=150-	=150-	=150-	=150-
1.B-	4	.	1.B-	bre-	.	1e-	bre-	.	1.f	son_bre-	.
!	!	!	!	!	!	!	!LO:SIC:s=-vi	!	!	!	!
.	3	.	.	.	.	(2d\	-ui	.	.	.	.
!	!	!	!LO:LB:g=original	!	!	!	!	!	!	!	!
=151-	=151-	=151-	=151-	=151-	=151-	=151-	=151-	=151-	=151-	=151-	=151-
!	!	!	!	!LO:SIC:s=-vi	!	!	!	!	!	!LO:SIC:s=-vi	!
2E-X\	.	.	2E-X\	-vi,	.	2e-X\)	.	.	2g/	-ui	.
!	!	!	!	!LO:SIC:s=quan-	!	!	!LO:SIC:s=quan-	!	!	!	!
1E-	.	.	1E-	qua(n)-	.	1g	qua(n)-	.	2r	.	.
.	.	.	.	.	.	.	.	.	2r	.	.
=152-	=152-	=152-	=152-	=152-	=152-	=152-	=152-	=152-	=152-	=152-	=152-
1.D	6	.	1D	-to	.	2f\	-to	.	1.r	.	.
!	!	!	!	!	!	!	!LO:SIC:s=quan-	!	!	!	!
.	.	.	.	.	.	1b-	qua(n)-	.	.	.	.
.	.	.	2D/	son	.	.	.	.	.	.	.
=153-	=153-	=153-	=153-	=153-	=153-	=153-	=153-	=153-	=153-	=153-	=153-
1.C	6 -	.	1.C	bre-	.	1a	-to	.	2r	.	.
.	.	.	.	.	.	.	.	.	1ee-X	quan-	.
!	!	!	!	!	!	!	!LO:SIC:s=son	!	!	!	!
.	.	.	.	.	.	2a\	so(n)	.	.	.	.
*	*	*	*	*	*	*	*	*	*custos:dd	*	*
!	!	!	!	!	!	!	!	!	!LO:LB:g=original	!	!
=154-	=154-	=154-	=154-	=154-	=154-	=154-	=154-	=154-	=154-	=154-	=154-
!	!	!	!	!LO:SIC:s=-vi	!	!	!	!	!	!	!
1.BB-	.	.	1.BB-	-ui	.	1b-	bre-	.	1.dd	-to	.
!	!	!	!	!	!	!	!LO:SIC:s=-vi	!	!	!	!
.	.	.	.	.	.	2a-X\	-ui	.	.	.	.
*custos:E	*	*	*	*	*	*	*	*	*	*	*
!LO:LB:g=original	!	!	!	!	!	!	!	!	!	!	!
=155-	=155-	=155-	=155-	=155-	=155-	=155-	=155-	=155-	=155-	=155-	=155-
!	!	!	!	!	!	!	!LO:SIC:s=quan-	!	!	!	!
2E-X\	6	.	2E-X\	quan-	.	2g\	qua(n)-	.	2cc\	quan-	.
2F\	.	.	2F\	-to	.	2a-\	-to	.	2cc\	-to	.
!	!	!	!	!	!	!	!LO:SIC:s=son	!	!	!	!
2G\	.	.	2G\	son	.	2b-\	so(n)	.	2cc\	son	.
!	!	!	!	!	!	!LO:LB:g=original	!	!	!	!	!
=156-	=156-	=156-	=156-	=156-	=156-	=156-	=156-	=156-	=156-	=156-	=156-
1.F	.	.	1.F	bre-	.	(1b-	bre-	.	1.cc	bre-	.
.	.	.	.	.	.	2any\)	.	.	.	.	.
=157-	=157-	=157-	=157-	=157-	=157-	=157-	=157-	=157-	=157-	=157-	=157-
!	!	!	!	!LO:SIC:s=-vi	!	!	!LO:SIC:s=-vi	!	!	!LO:SIC:s=-vi	!
2BB-/	.	.	2BB-/	-ui	.	2b-\	-ui	.	2dd\	-ui,	.
2B-\	.	.	2B-\	gl’an-	.	2r	.	.	2dd\	gl'an-	.
2Any\	.	.	2Any\	-ni	.	2r	.	.	2cc\	-ni	.
=158-	=158-	=158-	=158-	=158-	=158-	=158-	=158-	=158-	=158-	=158-	=158-
2B-\	.	.	2B-\	d’u-	.	1.r	.	.	2dd\	d'u-	.
2A\	.	.	2A\	-na	.	.	.	.	2cc\	-na	.
!	!	!	!LO:TX:t=P:problem=kreska pseudotaktowa	!	!	!	!	!	!LO:TX:t=P:problem=kreska pseudotaktowa	!	!
2G\	.	.	2G\	bel-	.	.	.	.	2b-\	bel-	.
=159-	=159-	=159-	=159-	=159-	=159-	=159-	=159-	=159-	=159-	=159-	=159-
1.F	.	.	2F\	-tà	.	2r	.	.	2any\	-tà	.
.	.	.	[>1FF	quan-	.	2f\	gl’an-	.	2a\	gl'an-	.
.	.	.	.	.	.	2eny\	-ni	.	2g/	-ni	.
=160-	=160-	=160-	=160-	=160-	=160-	=160-	=160-	=160-	=160-	=160-	=160-
1.FF	.	.	1.FF]	.	.	2f\	d’u-	.	2a\	d'u-	.
.	.	.	.	.	.	2e\	-na	.	2g/	-na	.
.	.	.	.	.	.	2d\	bel-	.	2f/	bel-	.
=161-	=161-	=161-	=161-	=161-	=161-	=161-	=161-	=161-	=161-	=161-	=161-
!	!	!	!	!	!	!	!	!	!	!LO:SIC:s=-tà	!
2C/	.	.	2C/	-to	.	2e\	-tà	.	2g/	-ta	.
!	!	!	!LO:LB:g=original	!	!	!	!	!	!	!	!
1FF	.	.	1FF	quan-	.	1f	quan-	.	1a	quan-	.
!	!	!	!	!	!	!	!	!	!LO:LB:g=original	!	!
=162-	=162-	=162-	=162-	=162-	=162-	=162-	=162-	=162-	=162-	=162-	=162-
1C	.	.	1C	-to	.	1e	-to	.	1g	-to	.
2r	.	.	2r	.	.	2r	.	.	2r	.	.
=163-	=163-	=163-	=163-	=163-	=163-	=163-	=163-	=163-	=163-	=163-	=163-
2r	.	.	2r	.	.	2r	.	.	2r	.	.
!	!	!	!	!	!LO:MO:mod=!LO&colon;DY&colon;ed=brack	!	!	!	!	!	!LO:MO:mod=!LO&colon;DY&colon;ed=brack
!	!	!	!	!	!null	!	!	!	!	!	!null
!	!	!LO:DY:t=piano	!	!	!LO:MO:null:mod=p	!	!	!LO:DY:b:t=piano	!	!	!LO:MO:null:mod=p
1F	.	p	1F	quan-	.	1f	quan-	p	1a	quan-	.
=164-	=164-	=164-	=164-	=164-	=164-	=164-	=164-	=164-	=164-	=164-	=164-
1C	.	.	1C	-to	.	1e	-to	.	1g	-to	.
!	!	!	!	!	!	!	!	!	!LO:TX:t=P:problem=kreska pseudotaktowa	!	!
2r	.	.	2r	.	.	2r	.	.	2r	.	.
=165-	=165-	=165-	=165-	=165-	=165-	=165-	=165-	=165-	=165-	=165-	=165-
*	*	*	*	*ij	*	*	*	*	*	*	*
!	!	!	!	!	!	!	!LO:SIC:s=quan-	!	!	!	!
2AAny/	6	.	2AAny/	quan-	.	2a\	qua(n)-	.	2cc\	quan-	.
1BB-	.	.	2BB-/	-to	.	2g\	-to	.	2b-\	-to	.
*	*	*	*	*Xij	*	*	*	*	*	*	*
.	.	.	2BB-/	son	.	2f\	son	.	2a\	son	.
=166-	=166-	=166-	=166-	=166-	=166-	=166-	=166-	=166-	=166-	=166-	=166-
1.C	.	.	1.C	bre-	.	1f	bre-	.	1.g	bre-	.
!	!	!	!	!	!	!	!LO:SIC:s=-vi.	!	!	!	!
.	.	.	.	.	.	(2e\	-ui	.	.	.	.
=167-	=167-	=167-	=167-	=167-	=167-	=167-	=167-	=167-	=167-	=167-	=167-
!	!	!	!	!LO:SIC:s=-vi.	!	!	!	!	!	!LO:SIC:s=-vi.	!
2FF/	.	.	2FF/	-ui	.	2f\)	.	.	2a\	-ui	.
2r	.	.	2r	.	.	2r	.	.	2r	.	.
!	!	!	!	!	!	!	!	!	!LO:TX:t=P:problem=kreska pseudotaktowa	!	!
2r	.	.	2r	.	.	2r	.	.	2r	.	.
!	!	!	!	!	!	!LO:LB:g=original	!	!	!	!	!
=168||	=168||	=168||	=168||	=168||	=168||	=168||	=168||	=168||	=168||	=168||	=168||
*M4/4	*	*	*M4/4	*	*	*M4/4	*	*	*M4/4	*	*
*met(c)	*	*	*met(c)	*	*	*met(c)	*	*	*met(c)	*	*
*mmet(c)	*	*	*mmet(c)	*	*	*mmet(c)	*	*	*mmet(c)	*	*
!	!	!	!LO:TX:a:i:mod= :t=solo	!	!	!	!	!	!	!	!
2FF/	.	.	4r	.	.	00r	.	.	00r	.	.
.	.	.	8r	.	.	.	.	.	.	.	.
!	!	!	!	!LO:SIC:s=Le	!	!	!	!	!	!	!
.	.	.	8C/	le	.	.	.	.	.	.	.
4FF/	.	.	16F\LL	pom-	.	.	.	.	.	.	.
.	.	.	16G\	.	.	.	.	.	.	.	.
.	.	.	16A\	.	.	.	.	.	.	.	.
.	.	.	16B-\JJ	.	.	.	.	.	.	.	.
4EE/	6	.	8c\	.	.	.	.	.	.	.	.
!	!	!	!LO:TX:t=P:problem=kreska pseudotaktowa	!	!	!	!	!	!	!	!
.	.	.	8C/	-pe	.	.	.	.	.	.	.
!LO:LB:g=original	!	!	!	!	!	!	!	!	!	!	!
=169-	=169-	=169-	=169-	=169-	=169-	=169-	=169-	=169-	=169-	=169-	=169-
2D/	7	.	16D\LL	di	.	.	.	.	.	.	.
.	.	.	16E\	.	.	.	.	.	.	.	.
.	.	.	16D\	.	.	.	.	.	.	.	.
.	.	.	16E\JJ	.	.	.	.	.	.	.	.
.	6	.	8.F\	.	.	.	.	.	.	.	.
.	.	.	16G\	bel-	.	.	.	.	.	.	.
2C/	.	.	4E\	-lez-	.	.	.	.	.	.	.
.	.	.	4C/	-za	.	.	.	.	.	.	.
!	!	!	!LO:LB:g=original	!	!	!	!	!	!	!	!
=170-	=170-	=170-	=170-	=170-	=170-	=170-	=170-	=170-	=170-	=170-	=170-
1C	.	.	8c\	col-	.	.	.	.	.	.	.
.	.	.	16B-\	-po	.	.	.	.	.	.	.
.	.	.	16c\	di	.	.	.	.	.	.	.
.	.	.	8G\L	tem-	.	.	.	.	.	.	.
.	.	.	16F\L	.	.	.	.	.	.	.	.
.	.	.	16G\JJ	.	.	.	.	.	.	.	.
.	.	.	8E\L	.	.	.	.	.	.	.	.
.	.	.	16D\L	.	.	.	.	.	.	.	.
.	.	.	16E\JJ	.	.	.	.	.	.	.	.
.	.	.	8C/L	.	.	.	.	.	.	.	.
.	.	.	16BB-/L	.	.	.	.	.	.	.	.
!	!	!	!LO:TX:t=P:problem=kreska pseudotaktowa	!	!	!	!	!	!	!	!
.	.	.	16C/JJ	.	.	.	.	.	.	.	.
=171-	=171-	=171-	=171-	=171-	=171-	=171-	=171-	=171-	=171-	=171-	=171-
4.EE/	6	.	4EE/	.	.	.	.	.	.	.	.
.	.	.	8EE/	-po	.	.	.	.	.	.	.
8FF/	.	.	8FF/	at-	.	.	.	.	.	.	.
2GG/	4	.	2GG/	-ter-	.	.	.	.	.	.	.
.	3	.	.	.	.	.	.	.	.	.	.
=172-	=172-	=172-	=172-	=172-	=172-	=172-	=172-	=172-	=172-	=172-	=172-
2C/	.	.	2CC/	-ba	.	00r	.	.	00r	.	.
4C/	.	.	4r	.	.	.	.	.	.	.	.
8C/L	.	.	8r	.	.	.	.	.	.	.	.
!	!	!	!	!LO:SIC:s=ab-	!	!	!	!	!	!	!
8C/J	.	.	8C/	Ab-	.	.	.	.	.	.	.
=173-	=173-	=173-	=173-	=173-	=173-	=173-	=173-	=173-	=173-	=173-	=173-
2.C/	.	.	8E\	-ba-	.	.	.	.	.	.	.
!	!	!	!	!LO:SIC:v:s=-te_o-	!	!	!	!	!	!	!
.	.	.	8E\	-ti_o-	.	.	.	.	.	.	.
.	.	.	8G\	-gni	.	.	.	.	.	.	.
.	.	.	8G\	for-	.	.	.	.	.	.	.
.	.	.	4E\	-tez-	.	.	.	.	.	.	.
!	!	!	!LO:TX:t=P:problem=kreska pseudotaktowa	!	!	!	!	!	!	!	!
8D\L	.	.	4C/	-za	.	.	.	.	.	.	.
8E\J	.	.	.	.	.	.	.	.	.	.	.
*	*	*	*custos:F	*	*	*	*	*	*	*	*
!	!	!	!LO:LB:g=original	!	!	!	!	!	!	!	!
=174-	=174-	=174-	=174-	=174-	=174-	=174-	=174-	=174-	=174-	=174-	=174-
2F\	.	.	8r	.	.	.	.	.	.	.	.
!	!	!	!	!LO:SIC:s=ab-	!	!	!	!	!	!	!
.	.	.	8F\	Ab-	.	.	.	.	.	.	.
.	.	.	8A\	-ba-	.	.	.	.	.	.	.
.	.	.	8A\	-te_o-	.	.	.	.	.	.	.
4F\	.	.	8c\	-gni	.	.	.	.	.	.	.
.	.	.	8c\	for-	.	.	.	.	.	.	.
!	!	!	!LO:TX:t=P:problem=kreska pseudotaktowa	!	!	!	!	!	!	!	!
8F\L	.	.	4A\	-tez-	.	.	.	.	.	.	.
8F\J	.	.	.	.	.	.	.	.	.	.	.
=175-	=175-	=175-	=175-	=175-	=175-	=175-	=175-	=175-	=175-	=175-	=175-
4F\	.	.	4F\	-za	.	.	.	.	.	.	.
4AA/	6	.	8AA/	lun-	.	.	.	.	.	.	.
.	.	.	8AA/	-go_aſ-	.	.	.	.	.	.	.
2BB-/	.	.	4BB-/	-se-	.	.	.	.	.	.	.
.	.	.	8C/	-dio	.	.	.	.	.	.	.
.	.	.	8D/	di	.	.	.	.	.	.	.
=176-	=176-	=176-	=176-	=176-	=176-	=176-	=176-	=176-	=176-	=176-	=176-
2C/	4	.	16C\LL	guer-	.	00r	.	.	00r	.	.
.	.	.	16D\	.	.	.	.	.	.	.	.
.	.	.	16E\	.	.	.	.	.	.	.	.
.	.	.	16F\JJ	.	.	.	.	.	.	.	.
.	3	.	8G\L	.	.	.	.	.	.	.	.
.	.	.	8C\J	.	.	.	.	.	.	.	.
4F\	.	.	16F\LL	.	.	.	.	.	.	.	.
.	.	.	16G\	.	.	.	.	.	.	.	.
.	.	.	16A\	.	.	.	.	.	.	.	.
.	.	.	16B-\JJ	.	.	.	.	.	.	.	.
!LO:TX:t=P:problem=kreska pseudotaktowa	!	!	!LO:TX:t=P:problem=mixed beam	!	!	!	!	!	!	!	!
4C/	.	.	8c\L	.	.	.	.	.	.	.	.
.	.	.	8C/J	.	.	.	.	.	.	.	.
=177-	=177-	=177-	=177-	=177-	=177-	=177-	=177-	=177-	=177-	=177-	=177-
4FF/	.	.	4FF/	-ra	.	.	.	.	.	.	.
4BB-/	.	.	8r	.	.	.	.	.	.	.	.
.	.	.	8BB-/	ab-	.	.	.	.	.	.	.
*	*	*	*custos:D	*	*	*	*	*	*	*	*
!	!	!	!LO:PB:g=original	!	!	!	!	!	!	!	!
2BB-/	.	.	8D/	-ba-	.	.	.	.	.	.	.
.	.	.	8D/	-te_o-	.	.	.	.	.	.	.
.	.	.	8F\	-gni	.	.	.	.	.	.	.
.	.	.	8F\	for-	.	.	.	.	.	.	.
=178-	=178-	=178-	=178-	=178-	=178-	=178-	=178-	=178-	=178-	=178-	=178-
4BB-/	.	.	4D/	-tez-	.	.	.	.	.	.	.
8BB-/L	.	.	4BB-/	-za	.	.	.	.	.	.	.
8BB-/J	.	.	.	.	.	.	.	.	.	.	.
2E-X\	.	.	8r	.	.	.	.	.	.	.	.
.	.	.	8E-X\	ab-	.	.	.	.	.	.	.
.	.	.	8G\	-ba-	.	.	.	.	.	.	.
.	.	.	8G\	-te_o-	.	.	.	.	.	.	.
*custos:E	*	*	*	*	*	*	*	*	*	*	*
!LO:LB:g=original	!	!	!	!	!	!	!	!	!	!	!
=179-	=179-	=179-	=179-	=179-	=179-	=179-	=179-	=179-	=179-	=179-	=179-
4E-X\	.	.	8B-\	-gni	.	.	.	.	.	.	.
.	.	.	8B-\	for-	.	.	.	.	.	.	.
2E-\	.	.	4G\	-tez-	.	.	.	.	.	.	.
.	.	.	4E-X\	-za	.	.	.	.	.	.	.
4GG/	6	.	8GG/	lun-	.	.	.	.	.	.	.
.	.	.	8GG/	-go	.	.	.	.	.	.	.
=180-	=180-	=180-	=180-	=180-	=180-	=180-	=180-	=180-	=180-	=180-	=180-
2AA-X/	6	.	4AA-X/	as-	.	00r	.	.	00r	.	.
.	.	.	8BB-/	-se-	.	.	.	.	.	.	.
.	.	.	8C/	-dio	.	.	.	.	.	.	.
2BB-/	.	.	16BB-/LL	di	.	.	.	.	.	.	.
.	.	.	16C/	.	.	.	.	.	.	.	.
.	.	.	16D/	.	.	.	.	.	.	.	.
.	.	.	16E-/JJ	.	.	.	.	.	.	.	.
!	!	!	!LO:SIC:s=8FL	!	!	!	!	!	!	!	!
.	.	.	(8F\	guer-	.	.	.	.	.	.	.
!	!	!	!LO:SIC:s=8BB-J	!	!	!	!	!	!	!	!
.	.	.	8BB-/)	.	.	.	.	.	.	.	.
*	*	*	*custos:E	*	*	*	*	*	*	*	*
!	!	!	!LO:LB:g=original	!	!	!	!	!	!	!	!
=181-	=181-	=181-	=181-	=181-	=181-	=181-	=181-	=181-	=181-	=181-	=181-
4E-X\	.	.	16E-X\LL	.	.	.	.	.	.	.	.
.	.	.	16F\	.	.	.	.	.	.	.	.
.	.	.	16G\	.	.	.	.	.	.	.	.
!	!	!	!LO:SIC:v:s=16A-JJ	!	!	!	!	!	!	!	!
.	.	.	16A\JJ	.	.	.	.	.	.	.	.
!	!	!	!LO:TX:t=P:problem=mixed beam	!	!	!	!	!	!	!	!
4B-\	.	.	8B-\L	.	.	.	.	.	.	.	.
.	.	.	8BB-/J	.	.	.	.	.	.	.	.
4E-\	.	.	4E-X\	-ra	.	.	.	.	.	.	.
4D/	.	.	8D/	lun-	.	.	.	.	.	.	.
.	.	.	8D/	go	.	.	.	.	.	.	.
=182-	=182-	=182-	=182-	=182-	=182-	=182-	=182-	=182-	=182-	=182-	=182-
2E-X\	.	.	4E-X\	as-	.	.	.	.	.	.	.
.	.	.	8F\	-se-	.	.	.	.	.	.	.
.	.	.	8G\	-dio	.	.	.	.	.	.	.
2F\	.	.	16F\LL	di	.	.	.	.	.	.	.
.	.	.	16G\	.	.	.	.	.	.	.	.
.	.	.	16A\	.	.	.	.	.	.	.	.
.	.	.	16B-\JJ	.	.	.	.	.	.	.	.
.	.	.	8c\L	guer-	.	.	.	.	.	.	.
.	.	.	8F\J	.	.	.	.	.	.	.	.
=183-	=183-	=183-	=183-	=183-	=183-	=183-	=183-	=183-	=183-	=183-	=183-
4BB-/	.	.	16BB-/LL	.	.	.	.	.	.	.	.
.	.	.	16C/	.	.	.	.	.	.	.	.
.	.	.	16D/	.	.	.	.	.	.	.	.
.	.	.	16E-/JJ	.	.	.	.	.	.	.	.
!	!	!	!LO:TX:t=P:problem=mixed beam	!	!	!	!	!	!	!	!
4F\	.	.	8F\L	.	.	.	.	.	.	.	.
.	.	.	8FF/J	.	.	.	.	.	.	.	.
!LO:TX:t=P:problem=kreska pseudotaktowa	!	!	!LO:TX:t=P:problem=kreska pseudotaktowa	!	!	!	!	!	!	!	!
2BB-/	.	.	2BB-;/	-ra	.	.	.	.	.	.	.
=184-	=184-	=184-	=184-	=184-	=184-	=184-	=184-	=184-	=184-	=184-	=184-
!!LO:TX:a:B:t= :mod=Adagio
!LO:TX:b:mod= :t=a 3	!	!	!	!	!	!	!	!	!	!	!
2B-\	.	.	4r	.	.	4r	.	.	4r	.	.
!	!	!	!	!	!	!LO:TX:B:mod= :t=adagio	!LO:SIC:v:s=co-	!	!	!LO:SIC:s=co-	!
.	.	.	4B-\	co-	.	4d\	Cosi	.	4f/	Co-	.
!	!	!	!	!	!	!LO:TX:t=P:problem=kreska pseudotaktowa	!LO:SIC:v:s=-si	!	!LO:TX:t=P:problem=kreska pseudotaktowa	!	!
2B-\	.	.	2B-\	-si	.	2d\	fà	.	2f/	-si	.
=185-	=185-	=185-	=185-	=185-	=185-	=185-	=185-	=185-	=185-	=185-	=185-
4G\	.	.	4G\	fa	.	4e-X\	fa	.	4g/	fa	.
4E-X\	.	.	8.E-X\	la	.	8.e-\	la	.	8.g/	la	.
.	.	.	16E-\	na-	.	16e-\	na-	.	16g/	na-	.
2B-\	.	.	4B-\	-tu-	.	4d\	-tu-	.	4f/	-tu-	.
!	!	!	!	!	!	!LO:TX:t=P:problem=kreska pseudotaktowa	!	!	!	!	!
.	.	.	4B-\	-ra	.	4d\	-ra	.	4f/	-ra	.
*	*	*	*	*	*	*	*	*	*custos:b	*	*
!	!	!	!LO:LB:g=original	!	!	!	!	!	!LO:LB:g=original	!	!
=186-	=186-	=186-	=186-	=186-	=186-	=186-	=186-	=186-	=186-	=186-	=186-
4r	.	.	4r	.	.	4r	.	.	4r	.	.
4E-X\	.	.	4E-X\	co-	.	4g\	co-	.	4b-\	co-	.
2E-\	.	.	2E-\	-si	.	2g\	-si	.	2b-\	-si	.
=187-	=187-	=187-	=187-	=187-	=187-	=187-	=187-	=187-	=187-	=187-	=187-
4C/	.	.	4C/	fa	.	4a-X\	fa	.	4cc\	fa	.
4AA-X/	.	.	8.AA-X/	la	.	8.a-\	la	.	8.cc\	la	.
.	.	.	16AA-/	na-	.	16a-\	na-	.	16cc\	na-	.
2E-X\	.	.	4E-X\	-tu-	.	4g\	-tu-	.	4b-\	-tu-	.
!	!	!	!	!LO:SIC:s=-ra.	!	!	!LO:SIC:s=-ra.	!	!	!LO:SIC:s=-ra.	!
.	.	.	4E-\	-ra	.	4g\	-ra	.	4b-\	-ra	.
*	*	*	*	*	*	*custos:g	*	*	*	*	*
!	!	!	!	!	!	!LO:PB:g=original	!	!	!	!	!
=188-	=188-	=188-	=188-	=188-	=188-	=188-	=188-	=188-	=188-	=188-	=188-
*M3/2	*	*	*M3/2	*	*	*M3/2	*	*	*M3/2	*	*
!LO:TX:b:i:mod= :t=volto	!	!	!	!	!	!	!	!	!	!	!
2r	.	.	2r	.	.	2r	.	.	2r	.	.
!	!	!	!	!LO:SIC:s=Vol-	!	!	!LO:SIC:s=Vol-	!	!	!LO:SIC:s=Vol-	!
2E-X\	.	.	2E-X\	vol-	.	2g\	vol-	.	2b-\	vol-	.
!	!	!	!	!	!	!LO:TX:t=P:problem=kreska pseudotaktowa	!	!	!	!	!
2D/	6	.	2D/	-to	.	2f\	-to	.	2b-\	-to	.
*custos:E	*	*	*	*	*	*	*	*	*	*	*
!LO:LB:g=original	!	!	!	!	!	!	!	!	!	!	!
=189-	=189-	=189-	=189-	=189-	=189-	=189-	=189-	=189-	=189-	=189-	=189-
2E-X\	.	.	2E-\	che	.	2g\	che	.	2b-\	che	.
2D/	.	.	2D/	bel-	.	2f\	bel-	.	2b-\	bel-	.
!	!	!	!	!	!	!LO:TX:t=P:problem=kreska pseudotaktowa	!	!	!	!	!
2C/	6\ -	.	2C/	-lo	.	2e-X\	-lo	.	2a\	-lo	.
=190-	=190-	=190-	=190-	=190-	=190-	=190-	=190-	=190-	=190-	=190-	=190-
2BB-/	.	.	2BB-/	sia	.	2d\	sia	.	2b-\	sia	.
1B-	.	.	1B-	paſ-	.	1d	pas-	.	2r	.	.
.	.	.	.	.	.	.	.	.	2r	.	.
=191-	=191-	=191-	=191-	=191-	=191-	=191-	=191-	=191-	=191-	=191-	=191-
1.A-X	6	.	1A-X	-sa_è	.	2c/	-sa	.	1.r	.	.
.	.	.	.	.	.	1f	pas-	.	.	.	.
.	.	.	2A-\	non	.	.	.	.	.	.	.
=192-	=192-	=192-	=192-	=192-	=192-	=192-	=192-	=192-	=192-	=192-	=192-
!	!	!	!	!	!	!LO:SIC:v:s=2e-	!	!	!	!	!
1.G	6	.	1.G	du-	.	2eny\	-sa	.	2r	.	.
!	!	!	!	!	!	!LO:SIC:v:s=2e-	!	!	!	!	!
.	.	.	.	.	.	2e\	è	.	1b-	paſ-	.
!	!	!	!	!	!	!LO:SIC:v:s=2e-	!	!	!	!	!
.	.	.	.	.	.	2e\	non	.	.	.	.
=193-	=193-	=193-	=193-	=193-	=193-	=193-	=193-	=193-	=193-	=193-	=193-
1.F	-	.	1.F	-ra	.	1f	du-	.	1.a-X	-sa	.
.	.	.	.	.	.	2e-X\	-ra	.	.	.	.
*	*	*	*custos:BB	*	*	*	*	*	*custos:g	*	*
!	!	!	!LO:LB:g=original	!	!	!	!	!	!LO:LB:g=original	!	!
=194-	=194-	=194-	=194-	=194-	=194-	=194-	=194-	=194-	=194-	=194-	=194-
*	*	*	*	*ij	*	*	*	*	*	*	*
2BB-/	.	.	2BB-/	paſ-	.	2d\	pas-	.	2g/	paſ-	.
2C/	.	.	2C/	-sa_è	.	2eny\	-sa_è	.	2g/	-sa_è	.
2D/	.	.	2D/	non	.	2f\	non	.	2g/	non	.
=195-	=195-	=195-	=195-	=195-	=195-	=195-	=195-	=195-	=195-	=195-	=195-
1.C	4	.	1.C	du-	.	1f	du-	.	1.g	du-	.
!	!	!	!	!	!	!LO:TX:t=P:problem=kreska pseudotaktowa	!	!	!	!	!
.	3	.	.	.	.	(2e\	-ra	.	.	.	.
=196-	=196-	=196-	=196-	=196-	=196-	=196-	=196-	=196-	=196-	=196-	=196-
2FF/	.	.	2FF/	-ra	.	2f\)	.	.	2a-X\	-ra	.
*	*	*	*	*Xij	*	*	*	*	*	*	*
!	!	!	!	!	!	!LO:LB:g=original	!	!	!	!	!
2F\	-	.	2F\	vol-	.	2a-X\	vol-	.	2r	.	.
!	!	!	!LO:TX:t=P:problem=kreska pseudotaktowa	!	!	!LO:TX:t=P:problem=kreska pseudotaktowa	!	!	!	!	!
2Eny\	6	.	2Eny\	-to	.	2g\	-to	.	2r	.	.
=197-	=197-	=197-	=197-	=197-	=197-	=197-	=197-	=197-	=197-	=197-	=197-
2F\	-	.	2F\	che	.	2a-\	che	.	1.r	.	.
2E-X\	.	.	2E-X\	bel-	.	2g\	bel-	.	.	.	.
2D/	.	.	2D\	-lo	.	2f\	-lo	.	.	.	.
=198-	=198-	=198-	=198-	=198-	=198-	=198-	=198-	=198-	=198-	=198-	=198-
!	!	!	!LO:MO:mod=1C	!	!	!	!	!	!	!	!
1C	.	.	[2C/	sia	.	2e-X\	sia	.	2r	.	.
!	!	!	!LO:MO:mod=.	!	!	!	!	!	!	!	!
.	.	.	2C/]	.	.	2cc\	vol-	.	2ee-X\	vol-	.
2G\	.	.	2G\	che	.	2b-\	-to	.	2dd\	-to	.
=199-	=199-	=199-	=199-	=199-	=199-	=199-	=199-	=199-	=199-	=199-	=199-
2C/	.	.	2C/	bel-	.	2cc\	che	.	2ee-\	che	.
!	!	!	!LO:MO:mod=1D	!	!	!	!	!	!	!	!
1D	6	.	[<2.D/	-lo	.	2b-\	bel-	.	2dd\	bel-	.
.	.	.	.	.	.	2any\	-lo	.	2cc\	-lo	.
!	!	!	!LO:MO:mod=.	!	!	!	!	!	!	!	!
.	.	.	4D/]	.	.	.	.	.	.	.	.
=200-	=200-	=200-	=200-	=200-	=200-	=200-	=200-	=200-	=200-	=200-	=200-
!	!	!	!LO:TX:a:t=P:problem=♭ above	!	!	!	!	!	!	!	!
1.E-X	.	.	2E-X\	sia	.	2g\	sia	.	2b-\	sia	.
.	.	.	2E-\	pas-	.	[1g	pas-	.	1b-	paſ-	.
!	!	!	!	!LO:SIC:s=-sa	!	!	!	!	!	!	!
.	.	.	2E-\	-sa,	.	.	.	.	.	.	.
=201-	=201-	=201-	=201-	=201-	=201-	=201-	=201-	=201-	=201-	=201-	=201-
1.F	9 -	.	1.F	pas-	.	2g\]	.	.	2a-X\	-sa	.
.	8	.	.	.	.	1f	-sa	.	1a-	paſ-	.
*custos:G	*	*	*	*	*	*	*	*	*	*	*
!LO:LB:g=original	!	!	!	!	!	!	!	!	!	!	!
=202-	=202-	=202-	=202-	=202-	=202-	=202-	=202-	=202-	=202-	=202-	=202-
1G	7	.	2G\	-sa	.	2f\	pas-	.	2g/	sa	.
.	6	.	2G\	è	.	2e-X\	-sa_è	.	2g/	è	.
!LO:SIC:v:s=2A-	!	!	!	!	!	!	!LO:SIC:s=non	!	!	!	!
2Any\	.	.	2A-X\	non	.	2e-\	no(n)	.	2f/	non	.
!	!	!	!LO:LB:g=original	!	!	!	!	!	!	!	!
=203-	=203-	=203-	=203-	=203-	=203-	=203-	=203-	=203-	=203-	=203-	=203-
1.B-	.	.	1.B-	du-	.	1e-	du-	.	1.f	du-	.
.	.	.	.	.	.	(2d\	-ra	.	.	.	.
*	*	*	*	*	*	*	*	*	*custos:g	*	*
!	!	!	!	!	!	!	!	!	!LO:LB:g=original	!	!
=204-	=204-	=204-	=204-	=204-	=204-	=204-	=204-	=204-	=204-	=204-	=204-
2E-X\	.	.	2E-X\	-ra	.	2e-X\)	.	.	2g/	-ra	.
1E-	.	.	1E-	pas-	.	1g	pas-	.	2r	.	.
.	.	.	.	.	.	.	.	.	2r	.	.
=205-	=205-	=205-	=205-	=205-	=205-	=205-	=205-	=205-	=205-	=205-	=205-
1.D	.	.	1D	-sa_è	.	2f\	-sa	.	1.r	.	.
.	.	.	.	.	.	1b-	pas-	.	.	.	.
.	.	.	2D/	non	.	.	.	.	.	.	.
!	!	!	!	!	!	!LO:LB:g=original	!	!	!	!	!
=206-	=206-	=206-	=206-	=206-	=206-	=206-	=206-	=206-	=206-	=206-	=206-
1.C	.	.	1.C	du-	.	1a	-sa_è	.	2r	.	.
.	.	.	.	.	.	.	.	.	1ee-X	paſ-	.
.	.	.	.	.	.	2a\	non	.	.	.	.
=207-	=207-	=207-	=207-	=207-	=207-	=207-	=207-	=207-	=207-	=207-	=207-
1.BB-	.	.	1.BB-	-ra	.	1b-	du-	.	1.dd	-sa	.
.	.	.	.	.	.	2a-X\	-ra	.	.	.	.
=208-	=208-	=208-	=208-	=208-	=208-	=208-	=208-	=208-	=208-	=208-	=208-
2E-X\	6	.	2E-X\	pas-	.	2g\	pas-	.	2cc\	paſ-	.
2F\	.	.	2F\	-sa_è	.	2any\	-sa_è	.	2cc\	-sa_è	.
!	!	!	!	!LO:SIC:s=non	!	!LO:TX:t=P:problem=kreska pseudotaktowa	!	!	!	!	!
2G\	.	.	2G\	no(n)	.	2b-\	non	.	2cc\	non	.
=209-	=209-	=209-	=209-	=209-	=209-	=209-	=209-	=209-	=209-	=209-	=209-
1.F	4	.	1.F	du-	.	1b-	du-	.	1.cc	du-	.
.	3	.	.	.	.	(2a\	-ra	.	.	.	.
=210-	=210-	=210-	=210-	=210-	=210-	=210-	=210-	=210-	=210-	=210-	=210-
2BB-/	.	.	2BB-/	-ra	.	2b-\)	.	.	2dd\	-ra	.
2B-\	.	.	2B-\	vol-	.	2r	.	.	2dd\	vol-	.
2A\	6	.	2Any\	-to	.	2r	.	.	2cc\	-to	.
=211-	=211-	=211-	=211-	=211-	=211-	=211-	=211-	=211-	=211-	=211-	=211-
2B-\	.	.	2B-\	che	.	1.r	.	.	2dd\	che	.
2A\	.	.	2A\	bel-	.	.	.	.	2cc\	bel-	.
2G\	.	.	2G\	-lo	.	.	.	.	2b-\	-lo	.
=212-	=212-	=212-	=212-	=212-	=212-	=212-	=212-	=212-	=212-	=212-	=212-
1.F	.	.	2F\	sia	.	2r	.	.	2any\	sia	.
.	.	.	[>1FF	pas-	.	2f\	vol-	.	2a\	vol-	.
.	.	.	.	.	.	2eny\	-to	.	2g/	-to	.
*	*	*	*	*	*	*	*	*	*custos:a	*	*
!	!	!	!	!	!	!	!	!	!LO:PB:g=original	!	!
=213-	=213-	=213-	=213-	=213-	=213-	=213-	=213-	=213-	=213-	=213-	=213-
1.FF	.	.	1.FF]	.	.	2f\	che	.	2a\	che	.
.	.	.	.	.	.	2e\	bel-	.	2g/	bel-	.
.	.	.	.	.	.	2d\	-lo	.	2f/	-lo	.
*	*	*	*custos:C	*	*	*	*	*	*	*	*
!	!	!	!LO:LB:g=original	!	!	!	!	!	!	!	!
=214-	=214-	=214-	=214-	=214-	=214-	=214-	=214-	=214-	=214-	=214-	=214-
2C/	.	.	2C/	-sa	.	2e\	sia	.	2g/	sia	.
!	!	!	!	!	!	!	!	!	!LO:TX:t=P:problem=kreska pseudotaktowa	!	!
1FF	.	.	1FF	pas-	.	1f	pas-	.	1a	paſ-	.
=215-	=215-	=215-	=215-	=215-	=215-	=215-	=215-	=215-	=215-	=215-	=215-
1C	.	.	1C	-sa	.	1e	-sa	.	1g	-sa	.
2r	.	.	2r	.	.	2r	.	.	2r	.	.
*custos:F	*	*	*	*	*	*	*	*	*	*	*
!LO:LB:g=original	!	!	!	!	!	!LO:LB:g=original	!	!	!	!	!
=216-	=216-	=216-	=216-	=216-	=216-	=216-	=216-	=216-	=216-	=216-	=216-
2r	.	.	2r	.	.	2r	.	.	2r	.	.
!	!	!	!	!	!LO:MO:mod=!LO&colon;DY&colon;ed=brack	!	!	!LO:MO:mod=!LO&colon;DY&colon;ed=brack	!	!	!LO:MO:mod=!LO&colon;DY&colon;ed=brack
!	!	!	!	!	!null	!	!	!null	!	!	!null
!	!	!LO:DY:t=pian	!	!	!LO:MO:null:mod=p	!	!	!LO:MO:null:mod=p	!	!	!LO:MO:null:mod=p
1F	.	p	1F	pas-	.	1f	pas-	.	1a	paſ-	.
=217-	=217-	=217-	=217-	=217-	=217-	=217-	=217-	=217-	=217-	=217-	=217-
1C	.	.	1C	-sa	.	1e	-sa	.	1g	-sa	.
!LO:TX:t=P:problem=kreska pseudotaktowa	!	!	!	!	!	!	!	!	!LO:TX:t=P:problem=kreska pseudotaktowa	!	!
2r	.	.	2r	.	.	2r	.	.	2r	.	.
=218-	=218-	=218-	=218-	=218-	=218-	=218-	=218-	=218-	=218-	=218-	=218-
2AAny/	6	.	2AAny/	pas-	.	2a\	pas-	.	2cc\	pas-	.
1BB-	.	.	2BB-/	-sa_è	.	2g\	-sa_è	.	2b-\	-sa_è	.
.	.	.	2BB-/	non	.	2f\	non	.	2a\	non	.
=219-	=219-	=219-	=219-	=219-	=219-	=219-	=219-	=219-	=219-	=219-	=219-
1.C	.	.	1.C	du-	.	1f	du-	.	1.g	du-	.
!	!	!	!	!	!	!LO:SIC:s=(2e	!LO:SIC:s=-ra.	!	!	!	!
.	.	.	.	.	.	2e\	-ra	.	.	.	.
=220-	=220-	=220-	=220-	=220-	=220-	=220-	=220-	=220-	=220-	=220-	=220-
!	!	!	!LO:SIC:s=2FF;	!	!	!LO:SIC:s=2f;)	!	!	!LO:SIC:s=2a;	!	!
2FF;/	.	.	2FF/	-ra.	.	2f;\	.	.	2a\	-ra.	.
2r	.	.	2r	.	.	2r	.	.	2r	.	.
2r	.	.	2r	.	.	2r	.	.	2r	.	.
==	==	==	==	==	==	==	==	==	==	==	==
*-	*-	*-	*-	*-	*-	*-	*-	*-	*-	*-	*-
!!!system-decoration: [vox]<klav>
!!!RDF**kern: > = above
!!!RDF**kern: < = below
!!LO:MO:mod
!! !!!RDF**kern: @ = marked note, color=grey
!!LO:MO:end
!!!filter-modern: shed -k -e "s/([#-])[yX]/$1/g; s/[ny]/$1/g;" | shed -e "s/LO:N:/LO:n:$1/L; s/^custos:/Xcustos:/I; s/^(\d+[\/\\]right)/$1yy/I; s/TX(.*):t=P:/tx$1:t=P:/LG" | shed -e "s/(LO:DY.*):t=(.*$)/$1:T=$2/L; s/LO:DY(.*)(:b)(.*)/LO:dy:$1$2$3/L" | shed -k -e "s/([^a-gA-Gn#X-])[<>]/$1/g" | sic -sq | modori -m  | humtr -p | autostem -r | tie -s | shed -e "s/-//B"
!!!ENC: Arkadiusz Malec
!!!END: 2022-01-26
!!!EED: Andrzej Kubiczek
!!!EEV: 2023-08-21
!!!ENC-modern: Andrzej Kubiczek
!!!END-modern: 2023-08-21
